( —ÖŠs 5 )
( USBCNC Postprocessor )
N20G00G21G17G90G40G49
N30G80
N40G00G43Z20.000H1
N50S12000M03
N60G94
N70X0.000Y0.000F240.0
N80G00X14.400Y14.954Z6.000
N90G01Z-0.300F90.0
N100G01X14.403Y14.890F240.0
N110X14.412Y14.829
N120X14.427Y14.770
N130X14.448Y14.714
N140X14.474Y14.660
N150X14.492Y14.630
N160X14.583Y14.520
N170X14.693Y14.429
N180X14.724Y14.410
N190X14.777Y14.384
N200X14.833Y14.364
N210X14.892Y14.349
N220X14.953Y14.340
N230X15.017Y14.336
N240X15.082Y14.340
N250X15.143Y14.349
N260X15.202Y14.364
N270X15.258Y14.384
N280X15.312Y14.410
N290X15.342Y14.429
N300X15.452Y14.520
N310X15.543Y14.630
N320X15.562Y14.660
N330X15.587Y14.714
N340X15.608Y14.770
N350X15.623Y14.828
N360X15.632Y14.890
N370X15.636Y14.954
N380X15.632Y15.019
N390X15.623Y15.080
N400X15.608Y15.138
N410X15.588Y15.195
N420X15.562Y15.248
N430X15.543Y15.279
N440X15.452Y15.389
N450X15.342Y15.480
N460X15.312Y15.498
N470X15.258Y15.524
N480X15.202Y15.544
N490X15.144Y15.560
N500X15.082Y15.569
N510X15.018Y15.572
N520X14.953Y15.569
N530X14.892Y15.560
N540X14.833Y15.545
N550X14.777Y15.524
N560X14.724Y15.498
N570X14.693Y15.480
N580X14.583Y15.389
N590X14.492Y15.279
N600X14.474Y15.249
N610X14.448Y15.195
N620X14.428Y15.139
N630X14.412Y15.080
N640X14.403Y15.019
N650X14.400Y14.954
N660G01Z-0.600F90.0
N670G01X14.403Y14.890F240.0
N680X14.412Y14.829
N690X14.427Y14.770
N700X14.448Y14.714
N710X14.474Y14.660
N720X14.492Y14.630
N730X14.583Y14.520
N740X14.693Y14.429
N750X14.724Y14.410
N760X14.777Y14.384
N770X14.833Y14.364
N780X14.892Y14.349
N790X14.953Y14.340
N800X15.017Y14.336
N810X15.082Y14.340
N820X15.143Y14.349
N830X15.202Y14.364
N840X15.258Y14.384
N850X15.312Y14.410
N860X15.342Y14.429
N870X15.452Y14.520
N880X15.543Y14.630
N890X15.562Y14.660
N900X15.587Y14.714
N910X15.608Y14.770
N920X15.623Y14.828
N930X15.632Y14.890
N940X15.636Y14.954
N950X15.632Y15.019
N960X15.623Y15.080
N970X15.608Y15.138
N980X15.588Y15.195
N990X15.562Y15.248
N1000X15.543Y15.279
N1010X15.452Y15.389
N1020X15.342Y15.480
N1030X15.312Y15.498
N1040X15.258Y15.524
N1050X15.202Y15.544
N1060X15.144Y15.560
N1070X15.082Y15.569
N1080X15.018Y15.572
N1090X14.953Y15.569
N1100X14.892Y15.560
N1110X14.833Y15.545
N1120X14.777Y15.524
N1130X14.724Y15.498
N1140X14.693Y15.480
N1150X14.583Y15.389
N1160X14.492Y15.279
N1170X14.474Y15.249
N1180X14.448Y15.195
N1190X14.428Y15.139
N1200X14.412Y15.080
N1210X14.403Y15.019
N1220X14.400Y14.954
N1230G01Z-0.900F90.0
N1240G01X14.403Y14.890F240.0
N1250X14.412Y14.829
N1260X14.427Y14.770
N1270X14.448Y14.714
N1280X14.474Y14.660
N1290X14.492Y14.630
N1300X14.583Y14.520
N1310X14.693Y14.429
N1320X14.724Y14.410
N1330X14.777Y14.384
N1340X14.833Y14.364
N1350X14.892Y14.349
N1360X14.953Y14.340
N1370X15.017Y14.336
N1380X15.082Y14.340
N1390X15.143Y14.349
N1400X15.202Y14.364
N1410X15.258Y14.384
N1420X15.312Y14.410
N1430X15.342Y14.429
N1440X15.452Y14.520
N1450X15.543Y14.630
N1460X15.562Y14.660
N1470X15.587Y14.714
N1480X15.608Y14.770
N1490X15.623Y14.828
N1500X15.632Y14.890
N1510X15.636Y14.954
N1520X15.632Y15.019
N1530X15.623Y15.080
N1540X15.608Y15.138
N1550X15.588Y15.195
N1560X15.562Y15.248
N1570X15.543Y15.279
N1580X15.452Y15.389
N1590X15.342Y15.480
N1600X15.312Y15.498
N1610X15.258Y15.524
N1620X15.202Y15.544
N1630X15.144Y15.560
N1640X15.082Y15.569
N1650X15.018Y15.572
N1660X14.953Y15.569
N1670X14.892Y15.560
N1680X14.833Y15.545
N1690X14.777Y15.524
N1700X14.724Y15.498
N1710X14.693Y15.480
N1720X14.583Y15.389
N1730X14.492Y15.279
N1740X14.474Y15.249
N1750X14.448Y15.195
N1760X14.428Y15.139
N1770X14.412Y15.080
N1780X14.403Y15.019
N1790X14.400Y14.954
N1800G01Z-1.200F90.0
N1810G01X14.403Y14.890F240.0
N1820X14.412Y14.829
N1830X14.427Y14.770
N1840X14.448Y14.714
N1850X14.474Y14.660
N1860X14.492Y14.630
N1870X14.583Y14.520
N1880X14.693Y14.429
N1890X14.724Y14.410
N1900X14.777Y14.384
N1910X14.833Y14.364
N1920X14.892Y14.349
N1930X14.953Y14.340
N1940X15.017Y14.336
N1950X15.082Y14.340
N1960X15.143Y14.349
N1970X15.202Y14.364
N1980X15.258Y14.384
N1990X15.312Y14.410
N2000X15.342Y14.429
N2010X15.452Y14.520
N2020X15.543Y14.630
N2030X15.562Y14.660
N2040X15.587Y14.714
N2050X15.608Y14.770
N2060X15.623Y14.828
N2070X15.632Y14.890
N2080X15.636Y14.954
N2090X15.632Y15.019
N2100X15.623Y15.080
N2110X15.608Y15.138
N2120X15.588Y15.195
N2130X15.562Y15.248
N2140X15.543Y15.279
N2150X15.452Y15.389
N2160X15.342Y15.480
N2170X15.312Y15.498
N2180X15.258Y15.524
N2190X15.202Y15.544
N2200X15.144Y15.560
N2210X15.082Y15.569
N2220X15.018Y15.572
N2230X14.953Y15.569
N2240X14.892Y15.560
N2250X14.833Y15.545
N2260X14.777Y15.524
N2270X14.724Y15.498
N2280X14.693Y15.480
N2290X14.583Y15.389
N2300X14.492Y15.279
N2310X14.474Y15.249
N2320X14.448Y15.195
N2330X14.428Y15.139
N2340X14.412Y15.080
N2350X14.403Y15.019
N2360X14.400Y14.954
N2370G01Z-1.500F90.0
N2380G01X14.403Y14.890F240.0
N2390X14.412Y14.829
N2400X14.427Y14.770
N2410X14.448Y14.714
N2420X14.474Y14.660
N2430X14.492Y14.630
N2440X14.583Y14.520
N2450X14.693Y14.429
N2460X14.724Y14.410
N2470X14.777Y14.384
N2480X14.833Y14.364
N2490X14.892Y14.349
N2500X14.953Y14.340
N2510X15.017Y14.336
N2520X15.082Y14.340
N2530X15.143Y14.349
N2540X15.202Y14.364
N2550X15.258Y14.384
N2560X15.312Y14.410
N2570X15.342Y14.429
N2580X15.452Y14.520
N2590X15.543Y14.630
N2600X15.562Y14.660
N2610X15.587Y14.714
N2620X15.608Y14.770
N2630X15.623Y14.828
N2640X15.632Y14.890
N2650X15.636Y14.954
N2660X15.632Y15.019
N2670X15.623Y15.080
N2680X15.608Y15.138
N2690X15.588Y15.195
N2700X15.562Y15.248
N2710X15.543Y15.279
N2720X15.452Y15.389
N2730X15.342Y15.480
N2740X15.312Y15.498
N2750X15.258Y15.524
N2760X15.202Y15.544
N2770X15.144Y15.560
N2780X15.082Y15.569
N2790X15.018Y15.572
N2800X14.953Y15.569
N2810X14.892Y15.560
N2820X14.833Y15.545
N2830X14.777Y15.524
N2840X14.724Y15.498
N2850X14.693Y15.480
N2860X14.583Y15.389
N2870X14.492Y15.279
N2880X14.474Y15.249
N2890X14.448Y15.195
N2900X14.428Y15.139
N2910X14.412Y15.080
N2920X14.403Y15.019
N2930X14.400Y14.954
N2940G01Z-1.800F90.0
N2950G01X14.403Y14.890F240.0
N2960X14.412Y14.829
N2970X14.427Y14.770
N2980X14.448Y14.714
N2990X14.474Y14.660
N3000X14.492Y14.630
N3010X14.583Y14.520
N3020X14.693Y14.429
N3030X14.724Y14.410
N3040X14.777Y14.384
N3050X14.833Y14.364
N3060X14.892Y14.349
N3070X14.953Y14.340
N3080X15.017Y14.336
N3090X15.082Y14.340
N3100X15.143Y14.349
N3110X15.202Y14.364
N3120X15.258Y14.384
N3130X15.312Y14.410
N3140X15.342Y14.429
N3150X15.452Y14.520
N3160X15.543Y14.630
N3170X15.562Y14.660
N3180X15.587Y14.714
N3190X15.608Y14.770
N3200X15.623Y14.828
N3210X15.632Y14.890
N3220X15.636Y14.954
N3230X15.632Y15.019
N3240X15.623Y15.080
N3250X15.608Y15.138
N3260X15.588Y15.195
N3270X15.562Y15.248
N3280X15.543Y15.279
N3290X15.452Y15.389
N3300X15.342Y15.480
N3310X15.312Y15.498
N3320X15.258Y15.524
N3330X15.202Y15.544
N3340X15.144Y15.560
N3350X15.082Y15.569
N3360X15.018Y15.572
N3370X14.953Y15.569
N3380X14.892Y15.560
N3390X14.833Y15.545
N3400X14.777Y15.524
N3410X14.724Y15.498
N3420X14.693Y15.480
N3430X14.583Y15.389
N3440X14.492Y15.279
N3450X14.474Y15.249
N3460X14.448Y15.195
N3470X14.428Y15.139
N3480X14.412Y15.080
N3490X14.403Y15.019
N3500X14.400Y14.954
N3510G01Z-2.100F90.0
N3520G01X14.403Y14.890F240.0
N3530X14.412Y14.829
N3540X14.427Y14.770
N3550X14.448Y14.714
N3560X14.474Y14.660
N3570X14.492Y14.630
N3580X14.583Y14.520
N3590X14.693Y14.429
N3600X14.724Y14.410
N3610X14.777Y14.384
N3620X14.833Y14.364
N3630X14.892Y14.349
N3640X14.953Y14.340
N3650X15.017Y14.336
N3660X15.082Y14.340
N3670X15.143Y14.349
N3680X15.202Y14.364
N3690X15.258Y14.384
N3700X15.312Y14.410
N3710X15.342Y14.429
N3720X15.452Y14.520
N3730X15.543Y14.630
N3740X15.562Y14.660
N3750X15.587Y14.714
N3760X15.608Y14.770
N3770X15.623Y14.828
N3780X15.632Y14.890
N3790X15.636Y14.954
N3800X15.632Y15.019
N3810X15.623Y15.080
N3820X15.608Y15.138
N3830X15.588Y15.195
N3840X15.562Y15.248
N3850X15.543Y15.279
N3860X15.452Y15.389
N3870X15.342Y15.480
N3880X15.312Y15.498
N3890X15.258Y15.524
N3900X15.202Y15.544
N3910X15.144Y15.560
N3920X15.082Y15.569
N3930X15.018Y15.572
N3940X14.953Y15.569
N3950X14.892Y15.560
N3960X14.833Y15.545
N3970X14.777Y15.524
N3980X14.724Y15.498
N3990X14.693Y15.480
N4000X14.583Y15.389
N4010X14.492Y15.279
N4020X14.474Y15.249
N4030X14.448Y15.195
N4040X14.428Y15.139
N4050X14.412Y15.080
N4060X14.403Y15.019
N4070X14.400Y14.954
N4080G01Z-2.400F90.0
N4090G01X14.403Y14.890F240.0
N4100X14.412Y14.829
N4110X14.427Y14.770
N4120X14.448Y14.714
N4130X14.474Y14.660
N4140X14.492Y14.630
N4150X14.583Y14.520
N4160X14.693Y14.429
N4170X14.724Y14.410
N4180X14.777Y14.384
N4190X14.833Y14.364
N4200X14.892Y14.349
N4210X14.953Y14.340
N4220X15.017Y14.336
N4230X15.082Y14.340
N4240X15.143Y14.349
N4250X15.202Y14.364
N4260X15.258Y14.384
N4270X15.312Y14.410
N4280X15.342Y14.429
N4290X15.452Y14.520
N4300X15.543Y14.630
N4310X15.562Y14.660
N4320X15.587Y14.714
N4330X15.608Y14.770
N4340X15.623Y14.828
N4350X15.632Y14.890
N4360X15.636Y14.954
N4370X15.632Y15.019
N4380X15.623Y15.080
N4390X15.608Y15.138
N4400X15.588Y15.195
N4410X15.562Y15.248
N4420X15.543Y15.279
N4430X15.452Y15.389
N4440X15.342Y15.480
N4450X15.312Y15.498
N4460X15.258Y15.524
N4470X15.202Y15.544
N4480X15.144Y15.560
N4490X15.082Y15.569
N4500X15.018Y15.572
N4510X14.953Y15.569
N4520X14.892Y15.560
N4530X14.833Y15.545
N4540X14.777Y15.524
N4550X14.724Y15.498
N4560X14.693Y15.480
N4570X14.583Y15.389
N4580X14.492Y15.279
N4590X14.474Y15.249
N4600X14.448Y15.195
N4610X14.428Y15.139
N4620X14.412Y15.080
N4630X14.403Y15.019
N4640X14.400Y14.954
N4650G01Z-2.700F90.0
N4660G01X14.403Y14.890F240.0
N4670X14.412Y14.829
N4680X14.427Y14.770
N4690X14.448Y14.714
N4700X14.474Y14.660
N4710X14.492Y14.630
N4720X14.583Y14.520
N4730X14.693Y14.429
N4740X14.724Y14.410
N4750X14.777Y14.384
N4760X14.833Y14.364
N4770X14.892Y14.349
N4780X14.953Y14.340
N4790X15.017Y14.336
N4800X15.082Y14.340
N4810X15.143Y14.349
N4820X15.202Y14.364
N4830X15.258Y14.384
N4840X15.312Y14.410
N4850X15.342Y14.429
N4860X15.452Y14.520
N4870X15.543Y14.630
N4880X15.562Y14.660
N4890X15.587Y14.714
N4900X15.608Y14.770
N4910X15.623Y14.828
N4920X15.632Y14.890
N4930X15.636Y14.954
N4940X15.632Y15.019
N4950X15.623Y15.080
N4960X15.608Y15.138
N4970X15.588Y15.195
N4980X15.562Y15.248
N4990X15.543Y15.279
N5000X15.452Y15.389
N5010X15.342Y15.480
N5020X15.312Y15.498
N5030X15.258Y15.524
N5040X15.202Y15.544
N5050X15.144Y15.560
N5060X15.082Y15.569
N5070X15.018Y15.572
N5080X14.953Y15.569
N5090X14.892Y15.560
N5100X14.833Y15.545
N5110X14.777Y15.524
N5120X14.724Y15.498
N5130X14.693Y15.480
N5140X14.583Y15.389
N5150X14.492Y15.279
N5160X14.474Y15.249
N5170X14.448Y15.195
N5180X14.428Y15.139
N5190X14.412Y15.080
N5200X14.403Y15.019
N5210X14.400Y14.954
N5220G01Z-3.000F90.0
N5230G01X14.403Y14.890F240.0
N5240X14.412Y14.829
N5250X14.427Y14.770
N5260X14.448Y14.714
N5270X14.474Y14.660
N5280X14.492Y14.630
N5290X14.583Y14.520
N5300X14.693Y14.429
N5310X14.724Y14.410
N5320X14.777Y14.384
N5330X14.833Y14.364
N5340X14.892Y14.349
N5350X14.953Y14.340
N5360X15.017Y14.336
N5370X15.082Y14.340
N5380X15.143Y14.349
N5390X15.202Y14.364
N5400X15.258Y14.384
N5410X15.312Y14.410
N5420X15.342Y14.429
N5430X15.452Y14.520
N5440X15.543Y14.630
N5450X15.562Y14.660
N5460X15.587Y14.714
N5470X15.608Y14.770
N5480X15.623Y14.828
N5490X15.632Y14.890
N5500X15.636Y14.954
N5510X15.632Y15.019
N5520X15.623Y15.080
N5530X15.608Y15.138
N5540X15.588Y15.195
N5550X15.562Y15.248
N5560X15.543Y15.279
N5570X15.452Y15.389
N5580X15.342Y15.480
N5590X15.312Y15.498
N5600X15.258Y15.524
N5610X15.202Y15.544
N5620X15.144Y15.560
N5630X15.082Y15.569
N5640X15.018Y15.572
N5650X14.953Y15.569
N5660X14.892Y15.560
N5670X14.833Y15.545
N5680X14.777Y15.524
N5690X14.724Y15.498
N5700X14.693Y15.480
N5710X14.583Y15.389
N5720X14.492Y15.279
N5730X14.474Y15.249
N5740X14.448Y15.195
N5750X14.428Y15.139
N5760X14.412Y15.080
N5770X14.403Y15.019
N5780X14.400Y14.954
N5790G01Z-3.300F90.0
N5800G01X14.403Y14.890F240.0
N5810X14.412Y14.829
N5820X14.427Y14.770
N5830X14.448Y14.714
N5840X14.474Y14.660
N5850X14.492Y14.630
N5860X14.583Y14.520
N5870X14.693Y14.429
N5880X14.724Y14.410
N5890X14.777Y14.384
N5900X14.833Y14.364
N5910X14.892Y14.349
N5920X14.953Y14.340
N5930X15.017Y14.336
N5940X15.082Y14.340
N5950X15.143Y14.349
N5960X15.202Y14.364
N5970X15.258Y14.384
N5980X15.312Y14.410
N5990X15.342Y14.429
N6000X15.452Y14.520
N6010X15.543Y14.630
N6020X15.562Y14.660
N6030X15.587Y14.714
N6040X15.608Y14.770
N6050X15.623Y14.828
N6060X15.632Y14.890
N6070X15.636Y14.954
N6080X15.632Y15.019
N6090X15.623Y15.080
N6100X15.608Y15.138
N6110X15.588Y15.195
N6120X15.562Y15.248
N6130X15.543Y15.279
N6140X15.452Y15.389
N6150X15.342Y15.480
N6160X15.312Y15.498
N6170X15.258Y15.524
N6180X15.202Y15.544
N6190X15.144Y15.560
N6200X15.082Y15.569
N6210X15.018Y15.572
N6220X14.953Y15.569
N6230X14.892Y15.560
N6240X14.833Y15.545
N6250X14.777Y15.524
N6260X14.724Y15.498
N6270X14.693Y15.480
N6280X14.583Y15.389
N6290X14.492Y15.279
N6300X14.474Y15.249
N6310X14.448Y15.195
N6320X14.428Y15.139
N6330X14.412Y15.080
N6340X14.403Y15.019
N6350X14.400Y14.954
N6360G01Z-3.600F90.0
N6370G01X14.403Y14.890F240.0
N6380X14.412Y14.829
N6390X14.427Y14.770
N6400X14.448Y14.714
N6410X14.474Y14.660
N6420X14.492Y14.630
N6430X14.583Y14.520
N6440X14.693Y14.429
N6450X14.724Y14.410
N6460X14.777Y14.384
N6470X14.833Y14.364
N6480X14.892Y14.349
N6490X14.953Y14.340
N6500X15.017Y14.336
N6510X15.082Y14.340
N6520X15.143Y14.349
N6530X15.202Y14.364
N6540X15.258Y14.384
N6550X15.312Y14.410
N6560X15.342Y14.429
N6570X15.452Y14.520
N6580X15.543Y14.630
N6590X15.562Y14.660
N6600X15.587Y14.714
N6610X15.608Y14.770
N6620X15.623Y14.828
N6630X15.632Y14.890
N6640X15.636Y14.954
N6650X15.632Y15.019
N6660X15.623Y15.080
N6670X15.608Y15.138
N6680X15.588Y15.195
N6690X15.562Y15.248
N6700X15.543Y15.279
N6710X15.452Y15.389
N6720X15.342Y15.480
N6730X15.312Y15.498
N6740X15.258Y15.524
N6750X15.202Y15.544
N6760X15.144Y15.560
N6770X15.082Y15.569
N6780X15.018Y15.572
N6790X14.953Y15.569
N6800X14.892Y15.560
N6810X14.833Y15.545
N6820X14.777Y15.524
N6830X14.724Y15.498
N6840X14.693Y15.480
N6850X14.583Y15.389
N6860X14.492Y15.279
N6870X14.474Y15.249
N6880X14.448Y15.195
N6890X14.428Y15.139
N6900X14.412Y15.080
N6910X14.403Y15.019
N6920X14.400Y14.954
N6930G01Z-3.900F90.0
N6940G01X14.403Y14.890F240.0
N6950X14.412Y14.829
N6960X14.427Y14.770
N6970X14.448Y14.714
N6980X14.474Y14.660
N6990X14.492Y14.630
N7000X14.583Y14.520
N7010X14.693Y14.429
N7020X14.724Y14.410
N7030X14.777Y14.384
N7040X14.833Y14.364
N7050X14.892Y14.349
N7060X14.953Y14.340
N7070X15.017Y14.336
N7080X15.082Y14.340
N7090X15.143Y14.349
N7100X15.202Y14.364
N7110X15.258Y14.384
N7120X15.312Y14.410
N7130X15.342Y14.429
N7140X15.452Y14.520
N7150X15.543Y14.630
N7160X15.562Y14.660
N7170X15.587Y14.714
N7180X15.608Y14.770
N7190X15.623Y14.828
N7200X15.632Y14.890
N7210X15.636Y14.954
N7220X15.632Y15.019
N7230X15.623Y15.080
N7240X15.608Y15.138
N7250X15.588Y15.195
N7260X15.562Y15.248
N7270X15.543Y15.279
N7280X15.452Y15.389
N7290X15.342Y15.480
N7300X15.312Y15.498
N7310X15.258Y15.524
N7320X15.202Y15.544
N7330X15.144Y15.560
N7340X15.082Y15.569
N7350X15.018Y15.572
N7360X14.953Y15.569
N7370X14.892Y15.560
N7380X14.833Y15.545
N7390X14.777Y15.524
N7400X14.724Y15.498
N7410X14.693Y15.480
N7420X14.583Y15.389
N7430X14.492Y15.279
N7440X14.474Y15.249
N7450X14.448Y15.195
N7460X14.428Y15.139
N7470X14.412Y15.080
N7480X14.403Y15.019
N7490X14.400Y14.954
N7500G01Z-4.200F90.0
N7510G01X14.403Y14.890F240.0
N7520X14.412Y14.829
N7530X14.427Y14.770
N7540X14.448Y14.714
N7550X14.474Y14.660
N7560X14.492Y14.630
N7570X14.583Y14.520
N7580X14.693Y14.429
N7590X14.724Y14.410
N7600X14.777Y14.384
N7610X14.833Y14.364
N7620X14.892Y14.349
N7630X14.953Y14.340
N7640X15.017Y14.336
N7650X15.082Y14.340
N7660X15.143Y14.349
N7670X15.202Y14.364
N7680X15.258Y14.384
N7690X15.312Y14.410
N7700X15.342Y14.429
N7710X15.452Y14.520
N7720X15.543Y14.630
N7730X15.562Y14.660
N7740X15.587Y14.714
N7750X15.608Y14.770
N7760X15.623Y14.828
N7770X15.632Y14.890
N7780X15.636Y14.954
N7790X15.632Y15.019
N7800X15.623Y15.080
N7810X15.608Y15.138
N7820X15.588Y15.195
N7830X15.562Y15.248
N7840X15.543Y15.279
N7850X15.452Y15.389
N7860X15.342Y15.480
N7870X15.312Y15.498
N7880X15.258Y15.524
N7890X15.202Y15.544
N7900X15.144Y15.560
N7910X15.082Y15.569
N7920X15.018Y15.572
N7930X14.953Y15.569
N7940X14.892Y15.560
N7950X14.833Y15.545
N7960X14.777Y15.524
N7970X14.724Y15.498
N7980X14.693Y15.480
N7990X14.583Y15.389
N8000X14.492Y15.279
N8010X14.474Y15.249
N8020X14.448Y15.195
N8030X14.428Y15.139
N8040X14.412Y15.080
N8050X14.403Y15.019
N8060X14.400Y14.954
N8070G01Z-4.500F90.0
N8080G01X14.403Y14.890F240.0
N8090X14.412Y14.829
N8100X14.427Y14.770
N8110X14.448Y14.714
N8120X14.474Y14.660
N8130X14.492Y14.630
N8140X14.583Y14.520
N8150X14.693Y14.429
N8160X14.724Y14.410
N8170X14.777Y14.384
N8180X14.833Y14.364
N8190X14.892Y14.349
N8200X14.953Y14.340
N8210X15.017Y14.336
N8220X15.082Y14.340
N8230X15.143Y14.349
N8240X15.202Y14.364
N8250X15.258Y14.384
N8260X15.312Y14.410
N8270X15.342Y14.429
N8280X15.452Y14.520
N8290X15.543Y14.630
N8300X15.562Y14.660
N8310X15.587Y14.714
N8320X15.608Y14.770
N8330X15.623Y14.828
N8340X15.632Y14.890
N8350X15.636Y14.954
N8360X15.632Y15.019
N8370X15.623Y15.080
N8380X15.608Y15.138
N8390X15.588Y15.195
N8400X15.562Y15.248
N8410X15.543Y15.279
N8420X15.452Y15.389
N8430X15.342Y15.480
N8440X15.312Y15.498
N8450X15.258Y15.524
N8460X15.202Y15.544
N8470X15.144Y15.560
N8480X15.082Y15.569
N8490X15.018Y15.572
N8500X14.953Y15.569
N8510X14.892Y15.560
N8520X14.833Y15.545
N8530X14.777Y15.524
N8540X14.724Y15.498
N8550X14.693Y15.480
N8560X14.583Y15.389
N8570X14.492Y15.279
N8580X14.474Y15.249
N8590X14.448Y15.195
N8600X14.428Y15.139
N8610X14.412Y15.080
N8620X14.403Y15.019
N8630X14.400Y14.954
N8640G01Z-4.800F90.0
N8650G01X14.403Y14.890F240.0
N8660X14.412Y14.829
N8670X14.427Y14.770
N8680X14.448Y14.714
N8690X14.474Y14.660
N8700X14.492Y14.630
N8710X14.583Y14.520
N8720X14.693Y14.429
N8730X14.724Y14.410
N8740X14.777Y14.384
N8750X14.833Y14.364
N8760X14.892Y14.349
N8770X14.953Y14.340
N8780X15.017Y14.336
N8790X15.082Y14.340
N8800X15.143Y14.349
N8810X15.202Y14.364
N8820X15.258Y14.384
N8830X15.312Y14.410
N8840X15.342Y14.429
N8850X15.452Y14.520
N8860X15.543Y14.630
N8870X15.562Y14.660
N8880X15.587Y14.714
N8890X15.608Y14.770
N8900X15.623Y14.828
N8910X15.632Y14.890
N8920X15.636Y14.954
N8930X15.632Y15.019
N8940X15.623Y15.080
N8950X15.608Y15.138
N8960X15.588Y15.195
N8970X15.562Y15.248
N8980X15.543Y15.279
N8990X15.452Y15.389
N9000X15.342Y15.480
N9010X15.312Y15.498
N9020X15.258Y15.524
N9030X15.202Y15.544
N9040X15.144Y15.560
N9050X15.082Y15.569
N9060X15.018Y15.572
N9070X14.953Y15.569
N9080X14.892Y15.560
N9090X14.833Y15.545
N9100X14.777Y15.524
N9110X14.724Y15.498
N9120X14.693Y15.480
N9130X14.583Y15.389
N9140X14.492Y15.279
N9150X14.474Y15.249
N9160X14.448Y15.195
N9170X14.428Y15.139
N9180X14.412Y15.080
N9190X14.403Y15.019
N9200X14.400Y14.954
N9210G01Z-5.100F90.0
N9220G01X14.403Y14.890F240.0
N9230X14.412Y14.829
N9240X14.427Y14.770
N9250X14.448Y14.714
N9260X14.474Y14.660
N9270X14.492Y14.630
N9280X14.583Y14.520
N9290X14.693Y14.429
N9300X14.724Y14.410
N9310X14.777Y14.384
N9320X14.833Y14.364
N9330X14.892Y14.349
N9340X14.953Y14.340
N9350X15.017Y14.336
N9360X15.082Y14.340
N9370X15.143Y14.349
N9380X15.202Y14.364
N9390X15.258Y14.384
N9400X15.312Y14.410
N9410X15.342Y14.429
N9420X15.452Y14.520
N9430X15.543Y14.630
N9440X15.562Y14.660
N9450X15.587Y14.714
N9460X15.608Y14.770
N9470X15.623Y14.828
N9480X15.632Y14.890
N9490X15.636Y14.954
N9500X15.632Y15.019
N9510X15.623Y15.080
N9520X15.608Y15.138
N9530X15.588Y15.195
N9540X15.562Y15.248
N9550X15.543Y15.279
N9560X15.452Y15.389
N9570X15.342Y15.480
N9580X15.312Y15.498
N9590X15.258Y15.524
N9600X15.202Y15.544
N9610X15.144Y15.560
N9620X15.082Y15.569
N9630X15.018Y15.572
N9640X14.953Y15.569
N9650X14.892Y15.560
N9660X14.833Y15.545
N9670X14.777Y15.524
N9680X14.724Y15.498
N9690X14.693Y15.480
N9700X14.583Y15.389
N9710X14.492Y15.279
N9720X14.474Y15.249
N9730X14.448Y15.195
N9740X14.428Y15.139
N9750X14.412Y15.080
N9760X14.403Y15.019
N9770X14.400Y14.954
N9780G01Z-5.400F90.0
N9790G01X14.403Y14.890F240.0
N9800X14.412Y14.829
N9810X14.427Y14.770
N9820X14.448Y14.714
N9830X14.474Y14.660
N9840X14.492Y14.630
N9850X14.583Y14.520
N9860X14.693Y14.429
N9870X14.724Y14.410
N9880X14.777Y14.384
N9890X14.833Y14.364
N9900X14.892Y14.349
N9910X14.953Y14.340
N9920X15.017Y14.336
N9930X15.082Y14.340
N9940X15.143Y14.349
N9950X15.202Y14.364
N9960X15.258Y14.384
N9970X15.312Y14.410
N9980X15.342Y14.429
N9990X15.452Y14.520
N10000X15.543Y14.630
N10010X15.562Y14.660
N10020X15.587Y14.714
N10030X15.608Y14.770
N10040X15.623Y14.828
N10050X15.632Y14.890
N10060X15.636Y14.954
N10070X15.632Y15.019
N10080X15.623Y15.080
N10090X15.608Y15.138
N10100X15.588Y15.195
N10110X15.562Y15.248
N10120X15.543Y15.279
N10130X15.452Y15.389
N10140X15.342Y15.480
N10150X15.312Y15.498
N10160X15.258Y15.524
N10170X15.202Y15.544
N10180X15.144Y15.560
N10190X15.082Y15.569
N10200X15.018Y15.572
N10210X14.953Y15.569
N10220X14.892Y15.560
N10230X14.833Y15.545
N10240X14.777Y15.524
N10250X14.724Y15.498
N10260X14.693Y15.480
N10270X14.583Y15.389
N10280X14.492Y15.279
N10290X14.474Y15.249
N10300X14.448Y15.195
N10310X14.428Y15.139
N10320X14.412Y15.080
N10330X14.403Y15.019
N10340X14.400Y14.954
N10350G01Z-5.700F90.0
N10360G01X14.403Y14.890F240.0
N10370X14.412Y14.829
N10380X14.427Y14.770
N10390X14.448Y14.714
N10400X14.474Y14.660
N10410X14.492Y14.630
N10420X14.583Y14.520
N10430X14.693Y14.429
N10440X14.724Y14.410
N10450X14.777Y14.384
N10460X14.833Y14.364
N10470X14.892Y14.349
N10480X14.953Y14.340
N10490X15.017Y14.336
N10500X15.082Y14.340
N10510X15.143Y14.349
N10520X15.202Y14.364
N10530X15.258Y14.384
N10540X15.312Y14.410
N10550X15.342Y14.429
N10560X15.452Y14.520
N10570X15.543Y14.630
N10580X15.562Y14.660
N10590X15.587Y14.714
N10600X15.608Y14.770
N10610X15.623Y14.828
N10620X15.632Y14.890
N10630X15.636Y14.954
N10640X15.632Y15.019
N10650X15.623Y15.080
N10660X15.608Y15.138
N10670X15.588Y15.195
N10680X15.562Y15.248
N10690X15.543Y15.279
N10700X15.452Y15.389
N10710X15.342Y15.480
N10720X15.312Y15.498
N10730X15.258Y15.524
N10740X15.202Y15.544
N10750X15.144Y15.560
N10760X15.082Y15.569
N10770X15.018Y15.572
N10780X14.953Y15.569
N10790X14.892Y15.560
N10800X14.833Y15.545
N10810X14.777Y15.524
N10820X14.724Y15.498
N10830X14.693Y15.480
N10840X14.583Y15.389
N10850X14.492Y15.279
N10860X14.474Y15.249
N10870X14.448Y15.195
N10880X14.428Y15.139
N10890X14.412Y15.080
N10900X14.403Y15.019
N10910X14.400Y14.954
N10920G00Z6.000
N10930G00X14.097Y4.068Z6.000
N10940G01Z-0.438F120.0
N10950G01X15.938F360.0
N10960X15.938Y4.468
N10970X14.097
N10980Y4.868
N10990X15.938
N11000X15.938Y4.953
N11010Y5.268
N11020X14.097
N11030Y5.668
N11040X15.938
N11050Y6.068
N11060X14.097
N11070Y6.468
N11080X15.938
N11090Y6.868
N11100X14.097
N11110Y7.268
N11120X15.938
N11130Y7.668
N11140X14.097
N11150Y8.068
N11160X15.938
N11170Y8.468
N11180X14.097
N11190Y8.868
N11200X15.938
N11210Y9.268
N11220X14.097
N11230Y9.668
N11240X15.938
N11250Y10.068
N11260X14.097
N11270Y10.468
N11280X15.938
N11290Y10.868
N11300X14.097
N11310Y11.268
N11320X15.938
N11330Y11.668
N11340X14.097
N11350Y12.068
N11360X15.938
N11370Y12.468
N11380X14.097
N11390Y12.868
N11400X15.938
N11410Y12.954
N11420X15.947Y13.096
N11430X15.977Y13.242
N11440X15.986Y13.268
N11450X14.051
N11460X14.050Y13.271
N11470X13.987Y13.431
N11480X13.896Y13.582
N11490X13.824Y13.668
N11500X16.209
N11510X16.314Y13.773
N11520X16.444Y13.869
N11530X16.584Y13.943
N11540X16.730Y13.995
N11550X16.876Y14.025
N11560X17.018Y14.034
N11570X30.035
N11580X30.955Y14.034
N11590Y14.068
N11600X-0.920
N11610Y14.468
N11620X30.955
N11630Y14.868
N11640X-0.920
N11650Y15.268
N11660X30.955
N11670Y15.668
N11680X-0.920
N11690Y15.875
N11700X13.017
N11710X13.160Y15.884
N11720X13.306Y15.914
N11730X13.451Y15.965
N11740X13.592Y16.040
N11750X13.629Y16.068
N11760X16.406
N11770X16.314Y16.136
N11780X16.199Y16.250
N11790X16.103Y16.380
N11800X16.057Y16.468
N11810X13.978
N11820X14.007Y16.521
N11830X14.058Y16.666
N11840X14.088Y16.812
N11850X14.092Y16.868
N11860X15.944
N11870X15.938Y16.955
N11880Y17.268
N11890X14.097
N11900Y17.668
N11910X15.938
N11920Y18.068
N11930X14.097
N11940Y18.468
N11950X15.938
N11960Y18.868
N11970X14.097
N11980Y19.268
N11990X15.938
N12000Y19.668
N12010X14.097
N12020Y20.068
N12030X15.938
N12040Y20.468
N12050X14.097
N12060Y20.868
N12070X15.938
N12080Y21.268
N12090X14.097
N12100Y21.668
N12110X15.938
N12120Y22.068
N12130X14.097
N12140Y22.468
N12150X15.938
N12160Y22.868
N12170X14.097
N12180Y23.268
N12190X15.938
N12200Y23.668
N12210X14.097
N12220Y24.068
N12230X15.938
N12240Y24.468
N12250X14.097
N12260Y24.868
N12270X15.938
N12280Y24.955
N12290X15.938Y25.268
N12300X14.097
N12310Y25.668
N12320X15.938
N12330G00Z6.000
N12340G00X31.035Y15.955
N12350G01Z-0.438F120.0
N12360G01X30.035F360.0
N12370X17.018
N12380G2X16.018Y16.955I0.000J1.000
N12390G01Y24.955
N12400X16.018Y25.955
N12410X14.017
N12420Y24.955
N12430Y16.955
N12440G2X13.017Y15.955I-1.000J0.000
N12450G01X0.000
N12460X-1.000
N12470Y13.954
N12480X0.000Y13.954
N12490X13.017
N12500G2X14.017Y12.954I0.000J-1.000
N12510G01Y4.953
N12520Y3.953
N12530X16.018
N12540X16.018Y4.953
N12550Y12.954
N12560G2X17.018Y13.954I1.000J0.000
N12570G01X30.035
N12580X31.035Y13.954
N12590Y15.955
N12600G00Z6.000
N12610G00X14.097Y4.068
N12620G01Z-0.875F120.0
N12630G01X15.938F360.0
N12640X15.938Y4.468
N12650X14.097
N12660Y4.868
N12670X15.938
N12680X15.938Y4.953
N12690Y5.268
N12700X14.097
N12710Y5.668
N12720X15.938
N12730Y6.068
N12740X14.097
N12750Y6.468
N12760X15.938
N12770Y6.868
N12780X14.097
N12790Y7.268
N12800X15.938
N12810Y7.668
N12820X14.097
N12830Y8.068
N12840X15.938
N12850Y8.468
N12860X14.097
N12870Y8.868
N12880X15.938
N12890Y9.268
N12900X14.097
N12910Y9.668
N12920X15.938
N12930Y10.068
N12940X14.097
N12950Y10.468
N12960X15.938
N12970Y10.868
N12980X14.097
N12990Y11.268
N13000X15.938
N13010Y11.668
N13020X14.097
N13030Y12.068
N13040X15.938
N13050Y12.468
N13060X14.097
N13070Y12.868
N13080X15.938
N13090Y12.954
N13100X15.947Y13.096
N13110X15.977Y13.242
N13120X15.986Y13.268
N13130X14.051
N13140X14.050Y13.271
N13150X13.987Y13.431
N13160X13.896Y13.582
N13170X13.824Y13.668
N13180X16.209
N13190X16.314Y13.773
N13200X16.444Y13.869
N13210X16.584Y13.943
N13220X16.730Y13.995
N13230X16.876Y14.025
N13240X17.018Y14.034
N13250X30.035
N13260X30.955Y14.034
N13270Y14.068
N13280X-0.920
N13290Y14.468
N13300X30.955
N13310Y14.868
N13320X-0.920
N13330Y15.268
N13340X30.955
N13350Y15.668
N13360X-0.920
N13370Y15.875
N13380X13.017
N13390X13.160Y15.884
N13400X13.306Y15.914
N13410X13.451Y15.965
N13420X13.592Y16.040
N13430X13.629Y16.068
N13440X16.406
N13450X16.314Y16.136
N13460X16.199Y16.250
N13470X16.103Y16.380
N13480X16.057Y16.468
N13490X13.978
N13500X14.007Y16.521
N13510X14.058Y16.666
N13520X14.088Y16.812
N13530X14.092Y16.868
N13540X15.944
N13550X15.938Y16.955
N13560Y17.268
N13570X14.097
N13580Y17.668
N13590X15.938
N13600Y18.068
N13610X14.097
N13620Y18.468
N13630X15.938
N13640Y18.868
N13650X14.097
N13660Y19.268
N13670X15.938
N13680Y19.668
N13690X14.097
N13700Y20.068
N13710X15.938
N13720Y20.468
N13730X14.097
N13740Y20.868
N13750X15.938
N13760Y21.268
N13770X14.097
N13780Y21.668
N13790X15.938
N13800Y22.068
N13810X14.097
N13820Y22.468
N13830X15.938
N13840Y22.868
N13850X14.097
N13860Y23.268
N13870X15.938
N13880Y23.668
N13890X14.097
N13900Y24.068
N13910X15.938
N13920Y24.468
N13930X14.097
N13940Y24.868
N13950X15.938
N13960Y24.955
N13970X15.938Y25.268
N13980X14.097
N13990Y25.668
N14000X15.938
N14010G00Z6.000
N14020G00X31.035Y15.955
N14030G01Z-0.875F120.0
N14040G01X30.035F360.0
N14050X17.018
N14060G2X16.018Y16.955I0.000J1.000
N14070G01Y24.955
N14080X16.018Y25.955
N14090X14.017
N14100Y24.955
N14110Y16.955
N14120G2X13.017Y15.955I-1.000J0.000
N14130G01X0.000
N14140X-1.000
N14150Y13.954
N14160X0.000Y13.954
N14170X13.017
N14180G2X14.017Y12.954I0.000J-1.000
N14190G01Y4.953
N14200Y3.953
N14210X16.018
N14220X16.018Y4.953
N14230Y12.954
N14240G2X17.018Y13.954I1.000J0.000
N14250G01X30.035
N14260X31.035Y13.954
N14270Y15.955
N14280G00Z6.000
N14290G00X14.097Y4.068
N14300G01Z-1.313F120.0
N14310G01X15.938F360.0
N14320X15.938Y4.468
N14330X14.097
N14340Y4.868
N14350X15.938
N14360X15.938Y4.953
N14370Y5.268
N14380X14.097
N14390Y5.668
N14400X15.938
N14410Y6.068
N14420X14.097
N14430Y6.468
N14440X15.938
N14450Y6.868
N14460X14.097
N14470Y7.268
N14480X15.938
N14490Y7.668
N14500X14.097
N14510Y8.068
N14520X15.938
N14530Y8.468
N14540X14.097
N14550Y8.868
N14560X15.938
N14570Y9.268
N14580X14.097
N14590Y9.668
N14600X15.938
N14610Y10.068
N14620X14.097
N14630Y10.468
N14640X15.938
N14650Y10.868
N14660X14.097
N14670Y11.268
N14680X15.938
N14690Y11.668
N14700X14.097
N14710Y12.068
N14720X15.938
N14730Y12.468
N14740X14.097
N14750Y12.868
N14760X15.938
N14770Y12.954
N14780X15.947Y13.096
N14790X15.977Y13.242
N14800X15.986Y13.268
N14810X14.051
N14820X14.050Y13.271
N14830X13.987Y13.431
N14840X13.896Y13.582
N14850X13.824Y13.668
N14860X16.209
N14870X16.314Y13.773
N14880X16.444Y13.869
N14890X16.584Y13.943
N14900X16.730Y13.995
N14910X16.876Y14.025
N14920X17.018Y14.034
N14930X30.035
N14940X30.955Y14.034
N14950Y14.068
N14960X-0.920
N14970Y14.468
N14980X30.955
N14990Y14.868
N15000X-0.920
N15010Y15.268
N15020X30.955
N15030Y15.668
N15040X-0.920
N15050Y15.875
N15060X13.017
N15070X13.160Y15.884
N15080X13.306Y15.914
N15090X13.451Y15.965
N15100X13.592Y16.040
N15110X13.629Y16.068
N15120X16.406
N15130X16.314Y16.136
N15140X16.199Y16.250
N15150X16.103Y16.380
N15160X16.057Y16.468
N15170X13.978
N15180X14.007Y16.521
N15190X14.058Y16.666
N15200X14.088Y16.812
N15210X14.092Y16.868
N15220X15.944
N15230X15.938Y16.955
N15240Y17.268
N15250X14.097
N15260Y17.668
N15270X15.938
N15280Y18.068
N15290X14.097
N15300Y18.468
N15310X15.938
N15320Y18.868
N15330X14.097
N15340Y19.268
N15350X15.938
N15360Y19.668
N15370X14.097
N15380Y20.068
N15390X15.938
N15400Y20.468
N15410X14.097
N15420Y20.868
N15430X15.938
N15440Y21.268
N15450X14.097
N15460Y21.668
N15470X15.938
N15480Y22.068
N15490X14.097
N15500Y22.468
N15510X15.938
N15520Y22.868
N15530X14.097
N15540Y23.268
N15550X15.938
N15560Y23.668
N15570X14.097
N15580Y24.068
N15590X15.938
N15600Y24.468
N15610X14.097
N15620Y24.868
N15630X15.938
N15640Y24.955
N15650X15.938Y25.268
N15660X14.097
N15670Y25.668
N15680X15.938
N15690G00Z6.000
N15700G00X31.035Y15.955
N15710G01Z-1.313F120.0
N15720G01X30.035F360.0
N15730X17.018
N15740G2X16.018Y16.955I0.000J1.000
N15750G01Y24.955
N15760X16.018Y25.955
N15770X14.017
N15780Y24.955
N15790Y16.955
N15800G2X13.017Y15.955I-1.000J0.000
N15810G01X0.000
N15820X-1.000
N15830Y13.954
N15840X0.000Y13.954
N15850X13.017
N15860G2X14.017Y12.954I0.000J-1.000
N15870G01Y4.953
N15880Y3.953
N15890X16.018
N15900X16.018Y4.953
N15910Y12.954
N15920G2X17.018Y13.954I1.000J0.000
N15930G01X30.035
N15940X31.035Y13.954
N15950Y15.955
N15960G00Z6.000
N15970G00X14.097Y4.068
N15980G01Z-1.750F120.0
N15990G01X15.938F360.0
N16000X15.938Y4.468
N16010X14.097
N16020Y4.868
N16030X15.938
N16040X15.938Y4.953
N16050Y5.268
N16060X14.097
N16070Y5.668
N16080X15.938
N16090Y6.068
N16100X14.097
N16110Y6.468
N16120X15.938
N16130Y6.868
N16140X14.097
N16150Y7.268
N16160X15.938
N16170Y7.668
N16180X14.097
N16190Y8.068
N16200X15.938
N16210Y8.468
N16220X14.097
N16230Y8.868
N16240X15.938
N16250Y9.268
N16260X14.097
N16270Y9.668
N16280X15.938
N16290Y10.068
N16300X14.097
N16310Y10.468
N16320X15.938
N16330Y10.868
N16340X14.097
N16350Y11.268
N16360X15.938
N16370Y11.668
N16380X14.097
N16390Y12.068
N16400X15.938
N16410Y12.468
N16420X14.097
N16430Y12.868
N16440X15.938
N16450Y12.954
N16460X15.947Y13.096
N16470X15.977Y13.242
N16480X15.986Y13.268
N16490X14.051
N16500X14.050Y13.271
N16510X13.987Y13.431
N16520X13.896Y13.582
N16530X13.824Y13.668
N16540X16.209
N16550X16.314Y13.773
N16560X16.444Y13.869
N16570X16.584Y13.943
N16580X16.730Y13.995
N16590X16.876Y14.025
N16600X17.018Y14.034
N16610X30.035
N16620X30.955Y14.034
N16630Y14.068
N16640X-0.920
N16650Y14.468
N16660X30.955
N16670Y14.868
N16680X-0.920
N16690Y15.268
N16700X30.955
N16710Y15.668
N16720X-0.920
N16730Y15.875
N16740X13.017
N16750X13.160Y15.884
N16760X13.306Y15.914
N16770X13.451Y15.965
N16780X13.592Y16.040
N16790X13.629Y16.068
N16800X16.406
N16810X16.314Y16.136
N16820X16.199Y16.250
N16830X16.103Y16.380
N16840X16.057Y16.468
N16850X13.978
N16860X14.007Y16.521
N16870X14.058Y16.666
N16880X14.088Y16.812
N16890X14.092Y16.868
N16900X15.944
N16910X15.938Y16.955
N16920Y17.268
N16930X14.097
N16940Y17.668
N16950X15.938
N16960Y18.068
N16970X14.097
N16980Y18.468
N16990X15.938
N17000Y18.868
N17010X14.097
N17020Y19.268
N17030X15.938
N17040Y19.668
N17050X14.097
N17060Y20.068
N17070X15.938
N17080Y20.468
N17090X14.097
N17100Y20.868
N17110X15.938
N17120Y21.268
N17130X14.097
N17140Y21.668
N17150X15.938
N17160Y22.068
N17170X14.097
N17180Y22.468
N17190X15.938
N17200Y22.868
N17210X14.097
N17220Y23.268
N17230X15.938
N17240Y23.668
N17250X14.097
N17260Y24.068
N17270X15.938
N17280Y24.468
N17290X14.097
N17300Y24.868
N17310X15.938
N17320Y24.955
N17330X15.938Y25.268
N17340X14.097
N17350Y25.668
N17360X15.938
N17370G00Z6.000
N17380G00X31.035Y15.955
N17390G01Z-1.750F120.0
N17400G01X30.035F360.0
N17410X17.018
N17420G2X16.018Y16.955I0.000J1.000
N17430G01Y24.955
N17440X16.018Y25.955
N17450X14.017
N17460Y24.955
N17470Y16.955
N17480G2X13.017Y15.955I-1.000J0.000
N17490G01X0.000
N17500X-1.000
N17510Y13.954
N17520X0.000Y13.954
N17530X13.017
N17540G2X14.017Y12.954I0.000J-1.000
N17550G01Y4.953
N17560Y3.953
N17570X16.018
N17580X16.018Y4.953
N17590Y12.954
N17600G2X17.018Y13.954I1.000J0.000
N17610G01X30.035
N17620X31.035Y13.954
N17630Y15.955
N17640G00Z6.000
N17650G00X2.876Y20.967Z6.000
N17660G01Z-0.475F120.0
N17670G2X3.485Y20.768I0.010J-1.000F360.0
N17680G01X3.652Y20.643
N17690X3.749Y20.595
N17700X3.851Y20.567
N17710X3.955Y20.559
N17720X4.056Y20.569
N17730X4.150Y20.597
N17740X4.258Y20.654
N17750X4.278Y20.669
N17760X4.316Y20.703
N17770X4.351Y20.742
N17780X4.365Y20.761
N17790X4.421Y20.867
N17800X4.447Y20.956
N17810X4.456Y21.048
N17820X4.447Y21.140
N17830X4.421Y21.228
N17840X4.365Y21.333
N17850X4.351Y21.352
N17860X4.282Y21.427
N17870G2X4.020Y22.101I0.738J0.675
N17880G01X4.016Y29.972
N17890G2X5.016Y30.972I1.000J0.000
N17900G01X10.033
N17910G2X11.033Y29.971I0.000J-1.000
N17920G01X11.029Y27.085
N17930G2X10.814Y26.466I-1.000J0.001
N17940G01X10.681Y26.299
N17950X10.632Y26.203
N17960X10.603Y26.105
N17970X10.593Y26.006
N17980X10.603Y25.910
N17990X10.629Y25.820
N18000X10.685Y25.714
N18010X10.699Y25.694
N18020X10.734Y25.656
N18030X10.772Y25.621
N18040X10.792Y25.607
N18050X10.897Y25.551
N18060X10.986Y25.525
N18070X11.079Y25.516
N18080X11.171Y25.525
N18090X11.259Y25.551
N18100X11.363Y25.607
N18110X11.382Y25.621
N18120X11.457Y25.690
N18130G2X12.128Y25.952I0.675J-0.738
N18140G01X13.015Y25.955
N18150X17.020
N18160X17.907Y25.952
N18170G2X18.578Y25.689I-0.004J-1.000
N18180G01X18.654Y25.621
N18190X18.672Y25.607
N18200X18.777Y25.551
N18210X18.864Y25.525
N18220X18.956Y25.516
N18230X19.049Y25.525
N18240X19.138Y25.551
N18250X19.244Y25.607
N18260X19.264Y25.621
N18270X19.302Y25.656
N18280X19.337Y25.695
N18290X19.351Y25.714
N18300X19.406Y25.820
N18310X19.433Y25.910
N18320X19.442Y26.006
N18330X19.433Y26.104
N18340X19.404Y26.203
N18350X19.343Y26.320
N18360X19.324Y26.348
N18370X19.252Y26.429
N18380G2X19.006Y27.085I0.754J0.657
N18390G01X19.003Y29.971
N18400G2X20.003Y30.972I1.000J0.001
N18410G01X25.019
N18420G2X26.019Y29.972I0.000J-1.000
N18430G01X26.015Y22.101
N18440G2X25.753Y21.427I-1.000J0.000
N18450G01X25.684Y21.351
N18460X25.670Y21.333
N18470X25.615Y21.228
N18480X25.589Y21.141
N18490X25.580Y21.049
N18500X25.588Y20.956
N18510X25.615Y20.867
N18520X25.670Y20.761
N18530X25.685Y20.741
N18540X25.720Y20.703
N18550X25.758Y20.668
N18560X25.778Y20.653
N18570X25.886Y20.597
N18580X25.978Y20.569
N18590X26.075Y20.559
N18600X26.173Y20.567
N18610X26.265Y20.593
N18620X26.371Y20.646
N18630X26.389Y20.659
N18640X26.464Y20.723
N18650G2X27.128Y20.967I0.654J-0.756
N18660G01X30.045Y20.939
N18670G2X31.035Y19.939I-0.010J-1.000
N18680G01Y16.955
N18690Y12.954
N18700Y9.969
N18710G2X30.034Y8.970I-1.000J0.000
N18720G01X27.117Y8.973
N18730G2X26.443Y9.236I0.001J1.000
N18740G01X26.368Y9.304
N18750X26.349Y9.318
N18760X26.245Y9.374
N18770X26.157Y9.400
N18780X26.065Y9.409
N18790X25.973Y9.400
N18800X25.884Y9.374
N18810X25.778Y9.318
N18820X25.758Y9.304
N18830X25.719Y9.269
N18840X25.685Y9.230
N18850X25.670Y9.211
N18860X25.615Y9.105
N18870X25.588Y9.016
N18880X25.580Y8.924
N18890X25.589Y8.832
N18900X25.615Y8.744
N18910X25.670Y8.639
N18920X25.684Y8.620
N18930X25.753Y8.545
N18940G2X26.015Y7.871I-0.738J-0.675
N18950G01X26.019Y0.000
N18960G2X25.019Y-1.000I-1.000J0.000
N18970G01X20.003
N18980G2X19.003Y0.001I0.000J1.000
N18990G01X19.006Y2.855
N19000G2X19.269Y3.529I1.000J-0.001
N19010G01X19.337Y3.604
N19020X19.351Y3.623
N19030X19.407Y3.727
N19040X19.433Y3.815
N19050X19.442Y3.907
N19060X19.433Y3.999
N19070X19.407Y4.088
N19080X19.351Y4.194
N19090X19.336Y4.214
N19100X19.302Y4.253
N19110X19.263Y4.287
N19120X19.244Y4.302
N19130X19.138Y4.357
N19140X19.049Y4.384
N19150X18.957Y4.392
N19160X18.865Y4.383
N19170X18.777Y4.357
N19180X18.672Y4.302
N19190X18.653Y4.288
N19200X18.578Y4.219
N19210G2X17.908Y3.957I-0.675J0.738
N19220G01X17.020Y3.953
N19230X13.015
N19240X12.128Y3.957
N19250G2X11.457Y4.219I0.004J1.000
N19260G01X11.382Y4.288
N19270X11.363Y4.302
N19280X11.259Y4.357
N19290X11.171Y4.383
N19300X11.079Y4.392
N19310X10.987Y4.384
N19320X10.898Y4.357
N19330X10.792Y4.302
N19340X10.772Y4.287
N19350X10.733Y4.252
N19360X10.699Y4.214
N19370X10.684Y4.194
N19380X10.629Y4.089
N19390X10.602Y4.000
N19400X10.594Y3.907
N19410X10.603Y3.815
N19420X10.629Y3.727
N19430X10.684Y3.623
N19440X10.698Y3.604
N19450X10.767Y3.528
N19460G2X11.029Y2.855I-0.738J-0.675
N19470G01X11.033Y0.001
N19480G2X10.033Y-1.000I-1.000J-0.001
N19490G01X5.016
N19500G2X4.016Y0.000I0.000J1.000
N19510G01X4.020Y7.871
N19520G2X4.283Y8.545I1.000J0.000
N19530G01X4.351Y8.621
N19540X4.365Y8.639
N19550X4.421Y8.744
N19560X4.447Y8.831
N19570X4.456Y8.923
N19580X4.447Y9.016
N19590X4.421Y9.105
N19600X4.365Y9.211
N19610X4.351Y9.231
N19620X4.316Y9.269
N19630X4.277Y9.304
N19640X4.258Y9.318
N19650X4.152Y9.373
N19660X4.062Y9.400
N19670X3.966Y9.409
N19680X3.867Y9.400
N19690X3.769Y9.371
N19700X3.651Y9.310
N19710X3.624Y9.291
N19720X3.542Y9.219
N19730G2X2.887Y8.973I-0.657J0.754
N19740G01X0.001Y8.970
N19750G2X-1.000Y9.969I-0.001J1.000
N19760G01Y12.954
N19770Y16.955
N19780Y19.939
N19790G2X-0.010Y20.939I1.000J0.000
N19800G01X2.876Y20.967
N19810G01Z-0.950F120.0
N19820G2X3.485Y20.768I0.010J-1.000F360.0
N19830G01X3.652Y20.643
N19840X3.749Y20.595
N19850X3.851Y20.567
N19860X3.955Y20.559
N19870X4.056Y20.569
N19880X4.150Y20.597
N19890X4.258Y20.654
N19900X4.278Y20.669
N19910X4.316Y20.703
N19920X4.351Y20.742
N19930X4.365Y20.761
N19940X4.421Y20.867
N19950X4.447Y20.956
N19960X4.456Y21.048
N19970X4.447Y21.140
N19980X4.421Y21.228
N19990X4.365Y21.333
N20000X4.351Y21.352
N20010X4.282Y21.427
N20020G2X4.020Y22.101I0.738J0.675
N20030G01X4.016Y29.972
N20040G2X5.016Y30.972I1.000J0.000
N20050G01X10.033
N20060G2X11.033Y29.971I0.000J-1.000
N20070G01X11.029Y27.085
N20080G2X10.814Y26.466I-1.000J0.001
N20090G01X10.681Y26.299
N20100X10.632Y26.203
N20110X10.603Y26.105
N20120X10.593Y26.006
N20130X10.603Y25.910
N20140X10.629Y25.820
N20150X10.685Y25.714
N20160X10.699Y25.694
N20170X10.734Y25.656
N20180X10.772Y25.621
N20190X10.792Y25.607
N20200X10.897Y25.551
N20210X10.986Y25.525
N20220X11.079Y25.516
N20230X11.171Y25.525
N20240X11.259Y25.551
N20250X11.363Y25.607
N20260X11.382Y25.621
N20270X11.457Y25.690
N20280G2X12.128Y25.952I0.675J-0.738
N20290G01X13.015Y25.955
N20300X17.020
N20310X17.907Y25.952
N20320G2X18.578Y25.689I-0.004J-1.000
N20330G01X18.654Y25.621
N20340X18.672Y25.607
N20350X18.777Y25.551
N20360X18.864Y25.525
N20370X18.956Y25.516
N20380X19.049Y25.525
N20390X19.138Y25.551
N20400X19.244Y25.607
N20410X19.264Y25.621
N20420X19.302Y25.656
N20430X19.337Y25.695
N20440X19.351Y25.714
N20450X19.406Y25.820
N20460X19.433Y25.910
N20470X19.442Y26.006
N20480X19.433Y26.104
N20490X19.404Y26.203
N20500X19.343Y26.320
N20510X19.324Y26.348
N20520X19.252Y26.429
N20530G2X19.006Y27.085I0.754J0.657
N20540G01X19.003Y29.971
N20550G2X20.003Y30.972I1.000J0.001
N20560G01X25.019
N20570G2X26.019Y29.972I0.000J-1.000
N20580G01X26.015Y22.101
N20590G2X25.753Y21.427I-1.000J0.000
N20600G01X25.684Y21.351
N20610X25.670Y21.333
N20620X25.615Y21.228
N20630X25.589Y21.141
N20640X25.580Y21.049
N20650X25.588Y20.956
N20660X25.615Y20.867
N20670X25.670Y20.761
N20680X25.685Y20.741
N20690X25.720Y20.703
N20700X25.758Y20.668
N20710X25.778Y20.653
N20720X25.886Y20.597
N20730X25.978Y20.569
N20740X26.075Y20.559
N20750X26.173Y20.567
N20760X26.265Y20.593
N20770X26.371Y20.646
N20780X26.389Y20.659
N20790X26.464Y20.723
N20800G2X27.128Y20.967I0.654J-0.756
N20810G01X30.045Y20.939
N20820G2X31.035Y19.939I-0.010J-1.000
N20830G01Y16.955
N20840Y12.954
N20850Y9.969
N20860G2X30.034Y8.970I-1.000J0.000
N20870G01X27.117Y8.973
N20880G2X26.443Y9.236I0.001J1.000
N20890G01X26.368Y9.304
N20900X26.349Y9.318
N20910X26.245Y9.374
N20920X26.157Y9.400
N20930X26.065Y9.409
N20940X25.973Y9.400
N20950X25.884Y9.374
N20960X25.778Y9.318
N20970X25.758Y9.304
N20980X25.719Y9.269
N20990X25.685Y9.230
N21000X25.670Y9.211
N21010X25.615Y9.105
N21020X25.588Y9.016
N21030X25.580Y8.924
N21040X25.589Y8.832
N21050X25.615Y8.744
N21060X25.670Y8.639
N21070X25.684Y8.620
N21080X25.753Y8.545
N21090G2X26.015Y7.871I-0.738J-0.675
N21100G01X26.019Y0.000
N21110G2X25.019Y-1.000I-1.000J0.000
N21120G01X20.003
N21130G2X19.003Y0.001I0.000J1.000
N21140G01X19.006Y2.855
N21150G2X19.269Y3.529I1.000J-0.001
N21160G01X19.337Y3.604
N21170X19.351Y3.623
N21180X19.407Y3.727
N21190X19.433Y3.815
N21200X19.442Y3.907
N21210X19.433Y3.999
N21220X19.407Y4.088
N21230X19.351Y4.194
N21240X19.336Y4.214
N21250X19.302Y4.253
N21260X19.263Y4.287
N21270X19.244Y4.302
N21280X19.138Y4.357
N21290X19.049Y4.384
N21300X18.957Y4.392
N21310X18.865Y4.383
N21320X18.777Y4.357
N21330X18.672Y4.302
N21340X18.653Y4.288
N21350X18.578Y4.219
N21360G2X17.908Y3.957I-0.675J0.738
N21370G01X17.020Y3.953
N21380X13.015
N21390X12.128Y3.957
N21400G2X11.457Y4.219I0.004J1.000
N21410G01X11.382Y4.288
N21420X11.363Y4.302
N21430X11.259Y4.357
N21440X11.171Y4.383
N21450X11.079Y4.392
N21460X10.987Y4.384
N21470X10.898Y4.357
N21480X10.792Y4.302
N21490X10.772Y4.287
N21500X10.733Y4.252
N21510X10.699Y4.214
N21520X10.684Y4.194
N21530X10.629Y4.089
N21540X10.602Y4.000
N21550X10.594Y3.907
N21560X10.603Y3.815
N21570X10.629Y3.727
N21580X10.684Y3.623
N21590X10.698Y3.604
N21600X10.767Y3.528
N21610G2X11.029Y2.855I-0.738J-0.675
N21620G01X11.033Y0.001
N21630G2X10.033Y-1.000I-1.000J-0.001
N21640G01X5.016
N21650G2X4.016Y0.000I0.000J1.000
N21660G01X4.020Y7.871
N21670G2X4.283Y8.545I1.000J0.000
N21680G01X4.351Y8.621
N21690X4.365Y8.639
N21700X4.421Y8.744
N21710X4.447Y8.831
N21720X4.456Y8.923
N21730X4.447Y9.016
N21740X4.421Y9.105
N21750X4.365Y9.211
N21760X4.351Y9.231
N21770X4.316Y9.269
N21780X4.277Y9.304
N21790X4.258Y9.318
N21800X4.152Y9.373
N21810X4.062Y9.400
N21820X3.966Y9.409
N21830X3.867Y9.400
N21840X3.769Y9.371
N21850X3.651Y9.310
N21860X3.624Y9.291
N21870X3.542Y9.219
N21880G2X2.887Y8.973I-0.657J0.754
N21890G01X0.001Y8.970
N21900G2X-1.000Y9.969I-0.001J1.000
N21910G01Y12.954
N21920Y16.955
N21930Y19.939
N21940G2X-0.010Y20.939I1.000J0.000
N21950G01X2.876Y20.967
N21960G01Z-1.425F120.0
N21970G2X3.485Y20.768I0.010J-1.000F360.0
N21980G01X3.652Y20.643
N21990X3.749Y20.595
N22000X3.851Y20.567
N22010X3.955Y20.559
N22020X4.056Y20.569
N22030X4.150Y20.597
N22040X4.258Y20.654
N22050X4.278Y20.669
N22060X4.316Y20.703
N22070X4.351Y20.742
N22080X4.365Y20.761
N22090X4.421Y20.867
N22100X4.447Y20.956
N22110X4.456Y21.048
N22120X4.447Y21.140
N22130X4.421Y21.228
N22140X4.365Y21.333
N22150X4.351Y21.352
N22160X4.282Y21.427
N22170G2X4.020Y22.101I0.738J0.675
N22180G01X4.016Y29.972
N22190G2X5.016Y30.972I1.000J0.000
N22200G01X10.033
N22210G2X11.033Y29.971I0.000J-1.000
N22220G01X11.029Y27.085
N22230G2X10.814Y26.466I-1.000J0.001
N22240G01X10.681Y26.299
N22250X10.632Y26.203
N22260X10.603Y26.105
N22270X10.593Y26.006
N22280X10.603Y25.910
N22290X10.629Y25.820
N22300X10.685Y25.714
N22310X10.699Y25.694
N22320X10.734Y25.656
N22330X10.772Y25.621
N22340X10.792Y25.607
N22350X10.897Y25.551
N22360X10.986Y25.525
N22370X11.079Y25.516
N22380X11.171Y25.525
N22390X11.259Y25.551
N22400X11.363Y25.607
N22410X11.382Y25.621
N22420X11.457Y25.690
N22430G2X12.128Y25.952I0.675J-0.738
N22440G01X13.015Y25.955
N22450X17.020
N22460X17.907Y25.952
N22470G2X18.578Y25.689I-0.004J-1.000
N22480G01X18.654Y25.621
N22490X18.672Y25.607
N22500X18.777Y25.551
N22510X18.864Y25.525
N22520X18.956Y25.516
N22530X19.049Y25.525
N22540X19.138Y25.551
N22550X19.244Y25.607
N22560X19.264Y25.621
N22570X19.302Y25.656
N22580X19.337Y25.695
N22590X19.351Y25.714
N22600X19.406Y25.820
N22610X19.433Y25.910
N22620X19.442Y26.006
N22630X19.433Y26.104
N22640X19.404Y26.203
N22650X19.343Y26.320
N22660X19.324Y26.348
N22670X19.252Y26.429
N22680G2X19.006Y27.085I0.754J0.657
N22690G01X19.003Y29.971
N22700G2X20.003Y30.972I1.000J0.001
N22710G01X25.019
N22720G2X26.019Y29.972I0.000J-1.000
N22730G01X26.015Y22.101
N22740G2X25.753Y21.427I-1.000J0.000
N22750G01X25.684Y21.351
N22760X25.670Y21.333
N22770X25.615Y21.228
N22780X25.589Y21.141
N22790X25.580Y21.049
N22800X25.588Y20.956
N22810X25.615Y20.867
N22820X25.670Y20.761
N22830X25.685Y20.741
N22840X25.720Y20.703
N22850X25.758Y20.668
N22860X25.778Y20.653
N22870X25.886Y20.597
N22880X25.978Y20.569
N22890X26.075Y20.559
N22900X26.173Y20.567
N22910X26.265Y20.593
N22920X26.371Y20.646
N22930X26.389Y20.659
N22940X26.464Y20.723
N22950G2X27.128Y20.967I0.654J-0.756
N22960G01X30.045Y20.939
N22970G2X31.035Y19.939I-0.010J-1.000
N22980G01Y16.955
N22990Y12.954
N23000Y9.969
N23010G2X30.034Y8.970I-1.000J0.000
N23020G01X27.117Y8.973
N23030G2X26.443Y9.236I0.001J1.000
N23040G01X26.368Y9.304
N23050X26.349Y9.318
N23060X26.245Y9.374
N23070X26.157Y9.400
N23080X26.065Y9.409
N23090X25.973Y9.400
N23100X25.884Y9.374
N23110X25.778Y9.318
N23120X25.758Y9.304
N23130X25.719Y9.269
N23140X25.685Y9.230
N23150X25.670Y9.211
N23160X25.615Y9.105
N23170X25.588Y9.016
N23180X25.580Y8.924
N23190X25.589Y8.832
N23200X25.615Y8.744
N23210X25.670Y8.639
N23220X25.684Y8.620
N23230X25.753Y8.545
N23240G2X26.015Y7.871I-0.738J-0.675
N23250G01X26.019Y0.000
N23260G2X25.019Y-1.000I-1.000J0.000
N23270G01X20.003
N23280G2X19.003Y0.001I0.000J1.000
N23290G01X19.006Y2.855
N23300G2X19.269Y3.529I1.000J-0.001
N23310G01X19.337Y3.604
N23320X19.351Y3.623
N23330X19.407Y3.727
N23340X19.433Y3.815
N23350X19.442Y3.907
N23360X19.433Y3.999
N23370X19.407Y4.088
N23380X19.351Y4.194
N23390X19.336Y4.214
N23400X19.302Y4.253
N23410X19.263Y4.287
N23420X19.244Y4.302
N23430X19.138Y4.357
N23440X19.049Y4.384
N23450X18.957Y4.392
N23460X18.865Y4.383
N23470X18.777Y4.357
N23480X18.672Y4.302
N23490X18.653Y4.288
N23500X18.578Y4.219
N23510G2X17.908Y3.957I-0.675J0.738
N23520G01X17.020Y3.953
N23530X13.015
N23540X12.128Y3.957
N23550G2X11.457Y4.219I0.004J1.000
N23560G01X11.382Y4.288
N23570X11.363Y4.302
N23580X11.259Y4.357
N23590X11.171Y4.383
N23600X11.079Y4.392
N23610X10.987Y4.384
N23620X10.898Y4.357
N23630X10.792Y4.302
N23640X10.772Y4.287
N23650X10.733Y4.252
N23660X10.699Y4.214
N23670X10.684Y4.194
N23680X10.629Y4.089
N23690X10.602Y4.000
N23700X10.594Y3.907
N23710X10.603Y3.815
N23720X10.629Y3.727
N23730X10.684Y3.623
N23740X10.698Y3.604
N23750X10.767Y3.528
N23760G2X11.029Y2.855I-0.738J-0.675
N23770G01X11.033Y0.001
N23780G2X10.033Y-1.000I-1.000J-0.001
N23790G01X5.016
N23800G2X4.016Y0.000I0.000J1.000
N23810G01X4.020Y7.871
N23820G2X4.283Y8.545I1.000J0.000
N23830G01X4.351Y8.621
N23840X4.365Y8.639
N23850X4.421Y8.744
N23860X4.447Y8.831
N23870X4.456Y8.923
N23880X4.447Y9.016
N23890X4.421Y9.105
N23900X4.365Y9.211
N23910X4.351Y9.231
N23920X4.316Y9.269
N23930X4.277Y9.304
N23940X4.258Y9.318
N23950X4.152Y9.373
N23960X4.062Y9.400
N23970X3.966Y9.409
N23980X3.867Y9.400
N23990X3.769Y9.371
N24000X3.651Y9.310
N24010X3.624Y9.291
N24020X3.542Y9.219
N24030G2X2.887Y8.973I-0.657J0.754
N24040G01X0.001Y8.970
N24050G2X-1.000Y9.969I-0.001J1.000
N24060G01Y12.954
N24070Y16.955
N24080Y19.939
N24090G2X-0.010Y20.939I1.000J0.000
N24100G01X2.876Y20.967
N24110G01Z-1.900F120.0
N24120G2X3.485Y20.768I0.010J-1.000F360.0
N24130G01X3.652Y20.643
N24140X3.749Y20.595
N24150X3.851Y20.567
N24160X3.955Y20.559
N24170X4.056Y20.569
N24180X4.150Y20.597
N24190X4.258Y20.654
N24200X4.278Y20.669
N24210X4.316Y20.703
N24220X4.351Y20.742
N24230X4.365Y20.761
N24240X4.421Y20.867
N24250X4.447Y20.956
N24260X4.456Y21.048
N24270X4.447Y21.140
N24280X4.421Y21.228
N24290X4.365Y21.333
N24300X4.351Y21.352
N24310X4.282Y21.427
N24320G2X4.020Y22.101I0.738J0.675
N24330G01X4.016Y29.972
N24340G2X5.016Y30.972I1.000J0.000
N24350G01X10.033
N24360G2X11.033Y29.971I0.000J-1.000
N24370G01X11.029Y27.085
N24380G2X10.814Y26.466I-1.000J0.001
N24390G01X10.681Y26.299
N24400X10.632Y26.203
N24410X10.603Y26.105
N24420X10.593Y26.006
N24430X10.603Y25.910
N24440X10.629Y25.820
N24450X10.685Y25.714
N24460X10.699Y25.694
N24470X10.734Y25.656
N24480X10.772Y25.621
N24490X10.792Y25.607
N24500X10.897Y25.551
N24510X10.986Y25.525
N24520X11.079Y25.516
N24530X11.171Y25.525
N24540X11.259Y25.551
N24550X11.363Y25.607
N24560X11.382Y25.621
N24570X11.457Y25.690
N24580G2X12.128Y25.952I0.675J-0.738
N24590G01X13.015Y25.955
N24600X17.020
N24610X17.907Y25.952
N24620G2X18.578Y25.689I-0.004J-1.000
N24630G01X18.654Y25.621
N24640X18.672Y25.607
N24650X18.777Y25.551
N24660X18.864Y25.525
N24670X18.956Y25.516
N24680X19.049Y25.525
N24690X19.138Y25.551
N24700X19.244Y25.607
N24710X19.264Y25.621
N24720X19.302Y25.656
N24730X19.337Y25.695
N24740X19.351Y25.714
N24750X19.406Y25.820
N24760X19.433Y25.910
N24770X19.442Y26.006
N24780X19.433Y26.104
N24790X19.404Y26.203
N24800X19.343Y26.320
N24810X19.324Y26.348
N24820X19.252Y26.429
N24830G2X19.006Y27.085I0.754J0.657
N24840G01X19.003Y29.971
N24850G2X20.003Y30.972I1.000J0.001
N24860G01X25.019
N24870G2X26.019Y29.972I0.000J-1.000
N24880G01X26.015Y22.101
N24890G2X25.753Y21.427I-1.000J0.000
N24900G01X25.684Y21.351
N24910X25.670Y21.333
N24920X25.615Y21.228
N24930X25.589Y21.141
N24940X25.580Y21.049
N24950X25.588Y20.956
N24960X25.615Y20.867
N24970X25.670Y20.761
N24980X25.685Y20.741
N24990X25.720Y20.703
N25000X25.758Y20.668
N25010X25.778Y20.653
N25020X25.886Y20.597
N25030X25.978Y20.569
N25040X26.075Y20.559
N25050X26.173Y20.567
N25060X26.265Y20.593
N25070X26.371Y20.646
N25080X26.389Y20.659
N25090X26.464Y20.723
N25100G2X27.128Y20.967I0.654J-0.756
N25110G01X30.045Y20.939
N25120G2X31.035Y19.939I-0.010J-1.000
N25130G01Y16.955
N25140Y12.954
N25150Y9.969
N25160G2X30.034Y8.970I-1.000J0.000
N25170G01X27.117Y8.973
N25180G2X26.443Y9.236I0.001J1.000
N25190G01X26.368Y9.304
N25200X26.349Y9.318
N25210X26.245Y9.374
N25220X26.157Y9.400
N25230X26.065Y9.409
N25240X25.973Y9.400
N25250X25.884Y9.374
N25260X25.778Y9.318
N25270X25.758Y9.304
N25280X25.719Y9.269
N25290X25.685Y9.230
N25300X25.670Y9.211
N25310X25.615Y9.105
N25320X25.588Y9.016
N25330X25.580Y8.924
N25340X25.589Y8.832
N25350X25.615Y8.744
N25360X25.670Y8.639
N25370X25.684Y8.620
N25380X25.753Y8.545
N25390G2X26.015Y7.871I-0.738J-0.675
N25400G01X26.019Y0.000
N25410G2X25.019Y-1.000I-1.000J0.000
N25420G01X20.003
N25430G2X19.003Y0.001I0.000J1.000
N25440G01X19.006Y2.855
N25450G2X19.269Y3.529I1.000J-0.001
N25460G01X19.337Y3.604
N25470X19.351Y3.623
N25480X19.407Y3.727
N25490X19.433Y3.815
N25500X19.442Y3.907
N25510X19.433Y3.999
N25520X19.407Y4.088
N25530X19.351Y4.194
N25540X19.336Y4.214
N25550X19.302Y4.253
N25560X19.263Y4.287
N25570X19.244Y4.302
N25580X19.138Y4.357
N25590X19.049Y4.384
N25600X18.957Y4.392
N25610X18.865Y4.383
N25620X18.777Y4.357
N25630X18.672Y4.302
N25640X18.653Y4.288
N25650X18.578Y4.219
N25660G2X17.908Y3.957I-0.675J0.738
N25670G01X17.020Y3.953
N25680X13.015
N25690X12.128Y3.957
N25700G2X11.457Y4.219I0.004J1.000
N25710G01X11.382Y4.288
N25720X11.363Y4.302
N25730X11.259Y4.357
N25740X11.171Y4.383
N25750X11.079Y4.392
N25760X10.987Y4.384
N25770X10.898Y4.357
N25780X10.792Y4.302
N25790X10.772Y4.287
N25800X10.733Y4.252
N25810X10.699Y4.214
N25820X10.684Y4.194
N25830X10.629Y4.089
N25840X10.602Y4.000
N25850X10.594Y3.907
N25860X10.603Y3.815
N25870X10.629Y3.727
N25880X10.684Y3.623
N25890X10.698Y3.604
N25900X10.767Y3.528
N25910G2X11.029Y2.855I-0.738J-0.675
N25920G01X11.033Y0.001
N25930G2X10.033Y-1.000I-1.000J-0.001
N25940G01X5.016
N25950G2X4.016Y0.000I0.000J1.000
N25960G01X4.020Y7.871
N25970G2X4.283Y8.545I1.000J0.000
N25980G01X4.351Y8.621
N25990X4.365Y8.639
N26000X4.421Y8.744
N26010X4.447Y8.831
N26020X4.456Y8.923
N26030X4.447Y9.016
N26040X4.421Y9.105
N26050X4.365Y9.211
N26060X4.351Y9.231
N26070X4.316Y9.269
N26080X4.277Y9.304
N26090X4.258Y9.318
N26100X4.152Y9.373
N26110X4.062Y9.400
N26120X3.966Y9.409
N26130X3.867Y9.400
N26140X3.769Y9.371
N26150X3.651Y9.310
N26160X3.624Y9.291
N26170X3.542Y9.219
N26180G2X2.887Y8.973I-0.657J0.754
N26190G01X0.001Y8.970
N26200G2X-1.000Y9.969I-0.001J1.000
N26210G01Y12.954
N26220Y16.955
N26230Y19.939
N26240G2X-0.010Y20.939I1.000J0.000
N26250G01X2.876Y20.967
N26260G01Z-2.375F120.0
N26270G2X3.485Y20.768I0.010J-1.000F360.0
N26280G01X3.652Y20.643
N26290X3.749Y20.595
N26300X3.851Y20.567
N26310X3.955Y20.559
N26320X4.056Y20.569
N26330X4.150Y20.597
N26340X4.258Y20.654
N26350X4.278Y20.669
N26360X4.316Y20.703
N26370X4.351Y20.742
N26380X4.365Y20.761
N26390X4.421Y20.867
N26400X4.447Y20.956
N26410X4.456Y21.048
N26420X4.447Y21.140
N26430X4.421Y21.228
N26440X4.365Y21.333
N26450X4.351Y21.352
N26460X4.282Y21.427
N26470G2X4.020Y22.101I0.738J0.675
N26480G01X4.016Y29.972
N26490G2X5.016Y30.972I1.000J0.000
N26500G01X10.033
N26510G2X11.033Y29.971I0.000J-1.000
N26520G01X11.029Y27.085
N26530G2X10.814Y26.466I-1.000J0.001
N26540G01X10.681Y26.299
N26550X10.632Y26.203
N26560X10.603Y26.105
N26570X10.593Y26.006
N26580X10.603Y25.910
N26590X10.629Y25.820
N26600X10.685Y25.714
N26610X10.699Y25.694
N26620X10.734Y25.656
N26630X10.772Y25.621
N26640X10.792Y25.607
N26650X10.897Y25.551
N26660X10.986Y25.525
N26670X11.079Y25.516
N26680X11.171Y25.525
N26690X11.259Y25.551
N26700X11.363Y25.607
N26710X11.382Y25.621
N26720X11.457Y25.690
N26730G2X12.128Y25.952I0.675J-0.738
N26740G01X13.015Y25.955
N26750X17.020
N26760X17.907Y25.952
N26770G2X18.578Y25.689I-0.004J-1.000
N26780G01X18.654Y25.621
N26790X18.672Y25.607
N26800X18.777Y25.551
N26810X18.864Y25.525
N26820X18.956Y25.516
N26830X19.049Y25.525
N26840X19.138Y25.551
N26850X19.244Y25.607
N26860X19.264Y25.621
N26870X19.302Y25.656
N26880X19.337Y25.695
N26890X19.351Y25.714
N26900X19.406Y25.820
N26910X19.433Y25.910
N26920X19.442Y26.006
N26930X19.433Y26.104
N26940X19.404Y26.203
N26950X19.343Y26.320
N26960X19.324Y26.348
N26970X19.252Y26.429
N26980G2X19.006Y27.085I0.754J0.657
N26990G01X19.003Y29.971
N27000G2X20.003Y30.972I1.000J0.001
N27010G01X25.019
N27020G2X26.019Y29.972I0.000J-1.000
N27030G01X26.015Y22.101
N27040G2X25.753Y21.427I-1.000J0.000
N27050G01X25.684Y21.351
N27060X25.670Y21.333
N27070X25.615Y21.228
N27080X25.589Y21.141
N27090X25.580Y21.049
N27100X25.588Y20.956
N27110X25.615Y20.867
N27120X25.670Y20.761
N27130X25.685Y20.741
N27140X25.720Y20.703
N27150X25.758Y20.668
N27160X25.778Y20.653
N27170X25.886Y20.597
N27180X25.978Y20.569
N27190X26.075Y20.559
N27200X26.173Y20.567
N27210X26.265Y20.593
N27220X26.371Y20.646
N27230X26.389Y20.659
N27240X26.464Y20.723
N27250G2X27.128Y20.967I0.654J-0.756
N27260G01X30.045Y20.939
N27270G2X31.035Y19.939I-0.010J-1.000
N27280G01Y16.955
N27290Y12.954
N27300Y9.969
N27310G2X30.034Y8.970I-1.000J0.000
N27320G01X27.117Y8.973
N27330G2X26.443Y9.236I0.001J1.000
N27340G01X26.368Y9.304
N27350X26.349Y9.318
N27360X26.245Y9.374
N27370X26.157Y9.400
N27380X26.065Y9.409
N27390X25.973Y9.400
N27400X25.884Y9.374
N27410X25.778Y9.318
N27420X25.758Y9.304
N27430X25.719Y9.269
N27440X25.685Y9.230
N27450X25.670Y9.211
N27460X25.615Y9.105
N27470X25.588Y9.016
N27480X25.580Y8.924
N27490X25.589Y8.832
N27500X25.615Y8.744
N27510X25.670Y8.639
N27520X25.684Y8.620
N27530X25.753Y8.545
N27540G2X26.015Y7.871I-0.738J-0.675
N27550G01X26.019Y0.000
N27560G2X25.019Y-1.000I-1.000J0.000
N27570G01X20.003
N27580G2X19.003Y0.001I0.000J1.000
N27590G01X19.006Y2.855
N27600G2X19.269Y3.529I1.000J-0.001
N27610G01X19.337Y3.604
N27620X19.351Y3.623
N27630X19.407Y3.727
N27640X19.433Y3.815
N27650X19.442Y3.907
N27660X19.433Y3.999
N27670X19.407Y4.088
N27680X19.351Y4.194
N27690X19.336Y4.214
N27700X19.302Y4.253
N27710X19.263Y4.287
N27720X19.244Y4.302
N27730X19.138Y4.357
N27740X19.049Y4.384
N27750X18.957Y4.392
N27760X18.865Y4.383
N27770X18.777Y4.357
N27780X18.672Y4.302
N27790X18.653Y4.288
N27800X18.578Y4.219
N27810G2X17.908Y3.957I-0.675J0.738
N27820G01X17.020Y3.953
N27830X13.015
N27840X12.128Y3.957
N27850G2X11.457Y4.219I0.004J1.000
N27860G01X11.382Y4.288
N27870X11.363Y4.302
N27880X11.259Y4.357
N27890X11.171Y4.383
N27900X11.079Y4.392
N27910X10.987Y4.384
N27920X10.898Y4.357
N27930X10.792Y4.302
N27940X10.772Y4.287
N27950X10.733Y4.252
N27960X10.699Y4.214
N27970X10.684Y4.194
N27980X10.629Y4.089
N27990X10.602Y4.000
N28000X10.594Y3.907
N28010X10.603Y3.815
N28020X10.629Y3.727
N28030X10.684Y3.623
N28040X10.698Y3.604
N28050X10.767Y3.528
N28060G2X11.029Y2.855I-0.738J-0.675
N28070G01X11.033Y0.001
N28080G2X10.033Y-1.000I-1.000J-0.001
N28090G01X5.016
N28100G2X4.016Y0.000I0.000J1.000
N28110G01X4.020Y7.871
N28120G2X4.283Y8.545I1.000J0.000
N28130G01X4.351Y8.621
N28140X4.365Y8.639
N28150X4.421Y8.744
N28160X4.447Y8.831
N28170X4.456Y8.923
N28180X4.447Y9.016
N28190X4.421Y9.105
N28200X4.365Y9.211
N28210X4.351Y9.231
N28220X4.316Y9.269
N28230X4.277Y9.304
N28240X4.258Y9.318
N28250X4.152Y9.373
N28260X4.062Y9.400
N28270X3.966Y9.409
N28280X3.867Y9.400
N28290X3.769Y9.371
N28300X3.651Y9.310
N28310X3.624Y9.291
N28320X3.542Y9.219
N28330G2X2.887Y8.973I-0.657J0.754
N28340G01X0.001Y8.970
N28350G2X-1.000Y9.969I-0.001J1.000
N28360G01Y12.954
N28370Y16.955
N28380Y19.939
N28390G2X-0.010Y20.939I1.000J0.000
N28400G01X2.876Y20.967
N28410G01Z-2.850F120.0
N28420G2X3.485Y20.768I0.010J-1.000F360.0
N28430G01X3.652Y20.643
N28440X3.749Y20.595
N28450X3.851Y20.567
N28460X3.955Y20.559
N28470X4.056Y20.569
N28480X4.150Y20.597
N28490X4.258Y20.654
N28500X4.278Y20.669
N28510X4.316Y20.703
N28520X4.351Y20.742
N28530X4.365Y20.761
N28540X4.421Y20.867
N28550X4.447Y20.956
N28560X4.456Y21.048
N28570X4.447Y21.140
N28580X4.421Y21.228
N28590X4.365Y21.333
N28600X4.351Y21.352
N28610X4.282Y21.427
N28620G2X4.020Y22.101I0.738J0.675
N28630G01X4.016Y29.972
N28640G2X5.016Y30.972I1.000J0.000
N28650G01X10.033
N28660G2X11.033Y29.971I0.000J-1.000
N28670G01X11.029Y27.085
N28680G2X10.814Y26.466I-1.000J0.001
N28690G01X10.681Y26.299
N28700X10.632Y26.203
N28710X10.603Y26.105
N28720X10.593Y26.006
N28730X10.603Y25.910
N28740X10.629Y25.820
N28750X10.685Y25.714
N28760X10.699Y25.694
N28770X10.734Y25.656
N28780X10.772Y25.621
N28790X10.792Y25.607
N28800X10.897Y25.551
N28810X10.986Y25.525
N28820X11.079Y25.516
N28830X11.171Y25.525
N28840X11.259Y25.551
N28850X11.363Y25.607
N28860X11.382Y25.621
N28870X11.457Y25.690
N28880G2X12.128Y25.952I0.675J-0.738
N28890G01X13.015Y25.955
N28900X17.020
N28910X17.907Y25.952
N28920G2X18.578Y25.689I-0.004J-1.000
N28930G01X18.654Y25.621
N28940X18.672Y25.607
N28950X18.777Y25.551
N28960X18.864Y25.525
N28970X18.956Y25.516
N28980X19.049Y25.525
N28990X19.138Y25.551
N29000X19.244Y25.607
N29010X19.264Y25.621
N29020X19.302Y25.656
N29030X19.337Y25.695
N29040X19.351Y25.714
N29050X19.406Y25.820
N29060X19.433Y25.910
N29070X19.442Y26.006
N29080X19.433Y26.104
N29090X19.404Y26.203
N29100X19.343Y26.320
N29110X19.324Y26.348
N29120X19.252Y26.429
N29130G2X19.006Y27.085I0.754J0.657
N29140G01X19.003Y29.971
N29150G2X20.003Y30.972I1.000J0.001
N29160G01X25.019
N29170G2X26.019Y29.972I0.000J-1.000
N29180G01X26.015Y22.101
N29190G2X25.753Y21.427I-1.000J0.000
N29200G01X25.684Y21.351
N29210X25.670Y21.333
N29220X25.615Y21.228
N29230X25.589Y21.141
N29240X25.580Y21.049
N29250X25.588Y20.956
N29260X25.615Y20.867
N29270X25.670Y20.761
N29280X25.685Y20.741
N29290X25.720Y20.703
N29300X25.758Y20.668
N29310X25.778Y20.653
N29320X25.886Y20.597
N29330X25.978Y20.569
N29340X26.075Y20.559
N29350X26.173Y20.567
N29360X26.265Y20.593
N29370X26.371Y20.646
N29380X26.389Y20.659
N29390X26.464Y20.723
N29400G2X27.128Y20.967I0.654J-0.756
N29410G01X30.045Y20.939
N29420G2X31.035Y19.939I-0.010J-1.000
N29430G01Y16.955
N29440Y12.954
N29450Y9.969
N29460G2X30.034Y8.970I-1.000J0.000
N29470G01X27.117Y8.973
N29480G2X26.443Y9.236I0.001J1.000
N29490G01X26.368Y9.304
N29500X26.349Y9.318
N29510X26.245Y9.374
N29520X26.157Y9.400
N29530X26.065Y9.409
N29540X25.973Y9.400
N29550X25.884Y9.374
N29560X25.778Y9.318
N29570X25.758Y9.304
N29580X25.719Y9.269
N29590X25.685Y9.230
N29600X25.670Y9.211
N29610X25.615Y9.105
N29620X25.588Y9.016
N29630X25.580Y8.924
N29640X25.589Y8.832
N29650X25.615Y8.744
N29660X25.670Y8.639
N29670X25.684Y8.620
N29680X25.753Y8.545
N29690G2X26.015Y7.871I-0.738J-0.675
N29700G01X26.019Y0.000
N29710G2X25.019Y-1.000I-1.000J0.000
N29720G01X20.003
N29730G2X19.003Y0.001I0.000J1.000
N29740G01X19.006Y2.855
N29750G2X19.269Y3.529I1.000J-0.001
N29760G01X19.337Y3.604
N29770X19.351Y3.623
N29780X19.407Y3.727
N29790X19.433Y3.815
N29800X19.442Y3.907
N29810X19.433Y3.999
N29820X19.407Y4.088
N29830X19.351Y4.194
N29840X19.336Y4.214
N29850X19.302Y4.253
N29860X19.263Y4.287
N29870X19.244Y4.302
N29880X19.138Y4.357
N29890X19.049Y4.384
N29900X18.957Y4.392
N29910X18.865Y4.383
N29920X18.777Y4.357
N29930X18.672Y4.302
N29940X18.653Y4.288
N29950X18.578Y4.219
N29960G2X17.908Y3.957I-0.675J0.738
N29970G01X17.020Y3.953
N29980X13.015
N29990X12.128Y3.957
N30000G2X11.457Y4.219I0.004J1.000
N30010G01X11.382Y4.288
N30020X11.363Y4.302
N30030X11.259Y4.357
N30040X11.171Y4.383
N30050X11.079Y4.392
N30060X10.987Y4.384
N30070X10.898Y4.357
N30080X10.792Y4.302
N30090X10.772Y4.287
N30100X10.733Y4.252
N30110X10.699Y4.214
N30120X10.684Y4.194
N30130X10.629Y4.089
N30140X10.602Y4.000
N30150X10.594Y3.907
N30160X10.603Y3.815
N30170X10.629Y3.727
N30180X10.684Y3.623
N30190X10.698Y3.604
N30200X10.767Y3.528
N30210G2X11.029Y2.855I-0.738J-0.675
N30220G01X11.033Y0.001
N30230G2X10.033Y-1.000I-1.000J-0.001
N30240G01X5.016
N30250G2X4.016Y0.000I0.000J1.000
N30260G01X4.020Y7.871
N30270G2X4.283Y8.545I1.000J0.000
N30280G01X4.351Y8.621
N30290X4.365Y8.639
N30300X4.421Y8.744
N30310X4.447Y8.831
N30320X4.456Y8.923
N30330X4.447Y9.016
N30340X4.421Y9.105
N30350X4.365Y9.211
N30360X4.351Y9.231
N30370X4.316Y9.269
N30380X4.277Y9.304
N30390X4.258Y9.318
N30400X4.152Y9.373
N30410X4.062Y9.400
N30420X3.966Y9.409
N30430X3.867Y9.400
N30440X3.769Y9.371
N30450X3.651Y9.310
N30460X3.624Y9.291
N30470X3.542Y9.219
N30480G2X2.887Y8.973I-0.657J0.754
N30490G01X0.001Y8.970
N30500G2X-1.000Y9.969I-0.001J1.000
N30510G01Y12.954
N30520Y16.955
N30530Y19.939
N30540G2X-0.010Y20.939I1.000J0.000
N30550G01X2.876Y20.967
N30560G01Z-3.325F120.0
N30570G2X3.485Y20.768I0.010J-1.000F360.0
N30580G01X3.652Y20.643
N30590X3.749Y20.595
N30600X3.851Y20.567
N30610X3.955Y20.559
N30620X4.056Y20.569
N30630X4.150Y20.597
N30640X4.258Y20.654
N30650X4.278Y20.669
N30660X4.316Y20.703
N30670X4.351Y20.742
N30680X4.365Y20.761
N30690X4.421Y20.867
N30700X4.447Y20.956
N30710X4.456Y21.048
N30720X4.447Y21.140
N30730X4.421Y21.228
N30740X4.365Y21.333
N30750X4.351Y21.352
N30760X4.282Y21.427
N30770G2X4.020Y22.101I0.738J0.675
N30780G01X4.016Y29.972
N30790G2X5.016Y30.972I1.000J0.000
N30800G01X10.033
N30810G2X11.033Y29.971I0.000J-1.000
N30820G01X11.029Y27.085
N30830G2X10.814Y26.466I-1.000J0.001
N30840G01X10.681Y26.299
N30850X10.632Y26.203
N30860X10.603Y26.105
N30870X10.593Y26.006
N30880X10.603Y25.910
N30890X10.629Y25.820
N30900X10.685Y25.714
N30910X10.699Y25.694
N30920X10.734Y25.656
N30930X10.772Y25.621
N30940X10.792Y25.607
N30950X10.897Y25.551
N30960X10.986Y25.525
N30970X11.079Y25.516
N30980X11.171Y25.525
N30990X11.259Y25.551
N31000X11.363Y25.607
N31010X11.382Y25.621
N31020X11.457Y25.690
N31030G2X12.128Y25.952I0.675J-0.738
N31040G01X13.015Y25.955
N31050X17.020
N31060X17.907Y25.952
N31070G2X18.578Y25.689I-0.004J-1.000
N31080G01X18.654Y25.621
N31090X18.672Y25.607
N31100X18.777Y25.551
N31110X18.864Y25.525
N31120X18.956Y25.516
N31130X19.049Y25.525
N31140X19.138Y25.551
N31150X19.244Y25.607
N31160X19.264Y25.621
N31170X19.302Y25.656
N31180X19.337Y25.695
N31190X19.351Y25.714
N31200X19.406Y25.820
N31210X19.433Y25.910
N31220X19.442Y26.006
N31230X19.433Y26.104
N31240X19.404Y26.203
N31250X19.343Y26.320
N31260X19.324Y26.348
N31270X19.252Y26.429
N31280G2X19.006Y27.085I0.754J0.657
N31290G01X19.003Y29.971
N31300G2X20.003Y30.972I1.000J0.001
N31310G01X25.019
N31320G2X26.019Y29.972I0.000J-1.000
N31330G01X26.015Y22.101
N31340G2X25.753Y21.427I-1.000J0.000
N31350G01X25.684Y21.351
N31360X25.670Y21.333
N31370X25.615Y21.228
N31380X25.589Y21.141
N31390X25.580Y21.049
N31400X25.588Y20.956
N31410X25.615Y20.867
N31420X25.670Y20.761
N31430X25.685Y20.741
N31440X25.720Y20.703
N31450X25.758Y20.668
N31460X25.778Y20.653
N31470X25.886Y20.597
N31480X25.978Y20.569
N31490X26.075Y20.559
N31500X26.173Y20.567
N31510X26.265Y20.593
N31520X26.371Y20.646
N31530X26.389Y20.659
N31540X26.464Y20.723
N31550G2X27.128Y20.967I0.654J-0.756
N31560G01X30.045Y20.939
N31570G2X31.035Y19.939I-0.010J-1.000
N31580G01Y16.955
N31590Y12.954
N31600Y9.969
N31610G2X30.034Y8.970I-1.000J0.000
N31620G01X27.117Y8.973
N31630G2X26.443Y9.236I0.001J1.000
N31640G01X26.368Y9.304
N31650X26.349Y9.318
N31660X26.245Y9.374
N31670X26.157Y9.400
N31680X26.065Y9.409
N31690X25.973Y9.400
N31700X25.884Y9.374
N31710X25.778Y9.318
N31720X25.758Y9.304
N31730X25.719Y9.269
N31740X25.685Y9.230
N31750X25.670Y9.211
N31760X25.615Y9.105
N31770X25.588Y9.016
N31780X25.580Y8.924
N31790X25.589Y8.832
N31800X25.615Y8.744
N31810X25.670Y8.639
N31820X25.684Y8.620
N31830X25.753Y8.545
N31840G2X26.015Y7.871I-0.738J-0.675
N31850G01X26.019Y0.000
N31860G2X25.019Y-1.000I-1.000J0.000
N31870G01X20.003
N31880G2X19.003Y0.001I0.000J1.000
N31890G01X19.006Y2.855
N31900G2X19.269Y3.529I1.000J-0.001
N31910G01X19.337Y3.604
N31920X19.351Y3.623
N31930X19.407Y3.727
N31940X19.433Y3.815
N31950X19.442Y3.907
N31960X19.433Y3.999
N31970X19.407Y4.088
N31980X19.351Y4.194
N31990X19.336Y4.214
N32000X19.302Y4.253
N32010X19.263Y4.287
N32020X19.244Y4.302
N32030X19.138Y4.357
N32040X19.049Y4.384
N32050X18.957Y4.392
N32060X18.865Y4.383
N32070X18.777Y4.357
N32080X18.672Y4.302
N32090X18.653Y4.288
N32100X18.578Y4.219
N32110G2X17.908Y3.957I-0.675J0.738
N32120G01X17.020Y3.953
N32130X13.015
N32140X12.128Y3.957
N32150G2X11.457Y4.219I0.004J1.000
N32160G01X11.382Y4.288
N32170X11.363Y4.302
N32180X11.259Y4.357
N32190X11.171Y4.383
N32200X11.079Y4.392
N32210X10.987Y4.384
N32220X10.898Y4.357
N32230X10.792Y4.302
N32240X10.772Y4.287
N32250X10.733Y4.252
N32260X10.699Y4.214
N32270X10.684Y4.194
N32280X10.629Y4.089
N32290X10.602Y4.000
N32300X10.594Y3.907
N32310X10.603Y3.815
N32320X10.629Y3.727
N32330X10.684Y3.623
N32340X10.698Y3.604
N32350X10.767Y3.528
N32360G2X11.029Y2.855I-0.738J-0.675
N32370G01X11.033Y0.001
N32380G2X10.033Y-1.000I-1.000J-0.001
N32390G01X5.016
N32400G2X4.016Y0.000I0.000J1.000
N32410G01X4.020Y7.871
N32420G2X4.283Y8.545I1.000J0.000
N32430G01X4.351Y8.621
N32440X4.365Y8.639
N32450X4.421Y8.744
N32460X4.447Y8.831
N32470X4.456Y8.923
N32480X4.447Y9.016
N32490X4.421Y9.105
N32500X4.365Y9.211
N32510X4.351Y9.231
N32520X4.316Y9.269
N32530X4.277Y9.304
N32540X4.258Y9.318
N32550X4.152Y9.373
N32560X4.062Y9.400
N32570X3.966Y9.409
N32580X3.867Y9.400
N32590X3.769Y9.371
N32600X3.651Y9.310
N32610X3.624Y9.291
N32620X3.542Y9.219
N32630G2X2.887Y8.973I-0.657J0.754
N32640G01X0.001Y8.970
N32650G2X-1.000Y9.969I-0.001J1.000
N32660G01Y12.954
N32670Y16.955
N32680Y19.939
N32690G2X-0.010Y20.939I1.000J0.000
N32700G01X2.876Y20.967
N32710G01Z-3.800F120.0
N32720G2X3.485Y20.768I0.010J-1.000F360.0
N32730G01X3.652Y20.643
N32740X3.749Y20.595
N32750X3.851Y20.567
N32760X3.955Y20.559
N32770X4.056Y20.569
N32780X4.150Y20.597
N32790X4.258Y20.654
N32800X4.278Y20.669
N32810X4.316Y20.703
N32820X4.351Y20.742
N32830X4.365Y20.761
N32840X4.421Y20.867
N32850X4.447Y20.956
N32860X4.456Y21.048
N32870X4.447Y21.140
N32880X4.421Y21.228
N32890X4.365Y21.333
N32900X4.351Y21.352
N32910X4.282Y21.427
N32920G2X4.020Y22.101I0.738J0.675
N32930G01X4.016Y29.972
N32940G2X5.016Y30.972I1.000J0.000
N32950G01X10.033
N32960G2X11.033Y29.971I0.000J-1.000
N32970G01X11.029Y27.085
N32980G2X10.814Y26.466I-1.000J0.001
N32990G01X10.681Y26.299
N33000X10.632Y26.203
N33010X10.603Y26.105
N33020X10.593Y26.006
N33030X10.603Y25.910
N33040X10.629Y25.820
N33050X10.685Y25.714
N33060X10.699Y25.694
N33070X10.734Y25.656
N33080X10.772Y25.621
N33090X10.792Y25.607
N33100X10.897Y25.551
N33110X10.986Y25.525
N33120X11.079Y25.516
N33130X11.171Y25.525
N33140X11.259Y25.551
N33150X11.363Y25.607
N33160X11.382Y25.621
N33170X11.457Y25.690
N33180G2X12.128Y25.952I0.675J-0.738
N33190G01X13.015Y25.955
N33200X17.020
N33210X17.907Y25.952
N33220G2X18.578Y25.689I-0.004J-1.000
N33230G01X18.654Y25.621
N33240X18.672Y25.607
N33250X18.777Y25.551
N33260X18.864Y25.525
N33270X18.956Y25.516
N33280X19.049Y25.525
N33290X19.138Y25.551
N33300X19.244Y25.607
N33310X19.264Y25.621
N33320X19.302Y25.656
N33330X19.337Y25.695
N33340X19.351Y25.714
N33350X19.406Y25.820
N33360X19.433Y25.910
N33370X19.442Y26.006
N33380X19.433Y26.104
N33390X19.404Y26.203
N33400X19.343Y26.320
N33410X19.324Y26.348
N33420X19.252Y26.429
N33430G2X19.006Y27.085I0.754J0.657
N33440G01X19.003Y29.971
N33450G2X20.003Y30.972I1.000J0.001
N33460G01X25.019
N33470G2X26.019Y29.972I0.000J-1.000
N33480G01X26.015Y22.101
N33490G2X25.753Y21.427I-1.000J0.000
N33500G01X25.684Y21.351
N33510X25.670Y21.333
N33520X25.615Y21.228
N33530X25.589Y21.141
N33540X25.580Y21.049
N33550X25.588Y20.956
N33560X25.615Y20.867
N33570X25.670Y20.761
N33580X25.685Y20.741
N33590X25.720Y20.703
N33600X25.758Y20.668
N33610X25.778Y20.653
N33620X25.886Y20.597
N33630X25.978Y20.569
N33640X26.075Y20.559
N33650X26.173Y20.567
N33660X26.265Y20.593
N33670X26.371Y20.646
N33680X26.389Y20.659
N33690X26.464Y20.723
N33700G2X27.128Y20.967I0.654J-0.756
N33710G01X30.045Y20.939
N33720G2X31.035Y19.939I-0.010J-1.000
N33730G01Y16.955
N33740Y12.954
N33750Y9.969
N33760G2X30.034Y8.970I-1.000J0.000
N33770G01X27.117Y8.973
N33780G2X26.443Y9.236I0.001J1.000
N33790G01X26.368Y9.304
N33800X26.349Y9.318
N33810X26.245Y9.374
N33820X26.157Y9.400
N33830X26.065Y9.409
N33840X25.973Y9.400
N33850X25.884Y9.374
N33860X25.778Y9.318
N33870X25.758Y9.304
N33880X25.719Y9.269
N33890X25.685Y9.230
N33900X25.670Y9.211
N33910X25.615Y9.105
N33920X25.588Y9.016
N33930X25.580Y8.924
N33940X25.589Y8.832
N33950X25.615Y8.744
N33960X25.670Y8.639
N33970X25.684Y8.620
N33980X25.753Y8.545
N33990G2X26.015Y7.871I-0.738J-0.675
N34000G01X26.019Y0.000
N34010G2X25.019Y-1.000I-1.000J0.000
N34020G01X20.003
N34030G2X19.003Y0.001I0.000J1.000
N34040G01X19.006Y2.855
N34050G2X19.269Y3.529I1.000J-0.001
N34060G01X19.337Y3.604
N34070X19.351Y3.623
N34080X19.407Y3.727
N34090X19.433Y3.815
N34100X19.442Y3.907
N34110X19.433Y3.999
N34120X19.407Y4.088
N34130X19.351Y4.194
N34140X19.336Y4.214
N34150X19.302Y4.253
N34160X19.263Y4.287
N34170X19.244Y4.302
N34180X19.138Y4.357
N34190X19.049Y4.384
N34200X18.957Y4.392
N34210X18.865Y4.383
N34220X18.777Y4.357
N34230X18.672Y4.302
N34240X18.653Y4.288
N34250X18.578Y4.219
N34260G2X17.908Y3.957I-0.675J0.738
N34270G01X17.020Y3.953
N34280X13.015
N34290X12.128Y3.957
N34300G2X11.457Y4.219I0.004J1.000
N34310G01X11.382Y4.288
N34320X11.363Y4.302
N34330X11.259Y4.357
N34340X11.171Y4.383
N34350X11.079Y4.392
N34360X10.987Y4.384
N34370X10.898Y4.357
N34380X10.792Y4.302
N34390X10.772Y4.287
N34400X10.733Y4.252
N34410X10.699Y4.214
N34420X10.684Y4.194
N34430X10.629Y4.089
N34440X10.602Y4.000
N34450X10.594Y3.907
N34460X10.603Y3.815
N34470X10.629Y3.727
N34480X10.684Y3.623
N34490X10.698Y3.604
N34500X10.767Y3.528
N34510G2X11.029Y2.855I-0.738J-0.675
N34520G01X11.033Y0.001
N34530G2X10.033Y-1.000I-1.000J-0.001
N34540G01X5.016
N34550G2X4.016Y0.000I0.000J1.000
N34560G01X4.020Y7.871
N34570G2X4.283Y8.545I1.000J0.000
N34580G01X4.351Y8.621
N34590X4.365Y8.639
N34600X4.421Y8.744
N34610X4.447Y8.831
N34620X4.456Y8.923
N34630X4.447Y9.016
N34640X4.421Y9.105
N34650X4.365Y9.211
N34660X4.351Y9.231
N34670X4.316Y9.269
N34680X4.277Y9.304
N34690X4.258Y9.318
N34700X4.152Y9.373
N34710X4.062Y9.400
N34720X3.966Y9.409
N34730X3.867Y9.400
N34740X3.769Y9.371
N34750X3.651Y9.310
N34760X3.624Y9.291
N34770X3.542Y9.219
N34780G2X2.887Y8.973I-0.657J0.754
N34790G01X0.001Y8.970
N34800G2X-1.000Y9.969I-0.001J1.000
N34810G01Y12.954
N34820Y16.955
N34830Y19.939
N34840G2X-0.010Y20.939I1.000J0.000
N34850G01X2.876Y20.967
N34860G01Z-4.275F120.0
N34870G2X3.485Y20.768I0.010J-1.000F360.0
N34880G01X3.652Y20.643
N34890X3.749Y20.595
N34900X3.851Y20.567
N34910X3.955Y20.559
N34920X4.056Y20.569
N34930X4.150Y20.597
N34940X4.258Y20.654
N34950X4.278Y20.669
N34960X4.316Y20.703
N34970X4.351Y20.742
N34980X4.365Y20.761
N34990X4.421Y20.867
N35000X4.447Y20.956
N35010X4.456Y21.048
N35020X4.447Y21.140
N35030X4.421Y21.228
N35040X4.365Y21.333
N35050X4.351Y21.352
N35060X4.282Y21.427
N35070G2X4.020Y22.101I0.738J0.675
N35080G01X4.016Y29.972
N35090G2X5.016Y30.972I1.000J0.000
N35100G01X10.033
N35110G2X11.033Y29.971I0.000J-1.000
N35120G01X11.029Y27.085
N35130G2X10.814Y26.466I-1.000J0.001
N35140G01X10.681Y26.299
N35150X10.632Y26.203
N35160X10.603Y26.105
N35170X10.593Y26.006
N35180X10.603Y25.910
N35190X10.629Y25.820
N35200X10.685Y25.714
N35210X10.699Y25.694
N35220X10.734Y25.656
N35230X10.772Y25.621
N35240X10.792Y25.607
N35250X10.897Y25.551
N35260X10.986Y25.525
N35270X11.079Y25.516
N35280X11.171Y25.525
N35290X11.259Y25.551
N35300X11.363Y25.607
N35310X11.382Y25.621
N35320X11.457Y25.690
N35330G2X12.128Y25.952I0.675J-0.738
N35340G01X13.015Y25.955
N35350X17.020
N35360X17.907Y25.952
N35370G2X18.578Y25.689I-0.004J-1.000
N35380G01X18.654Y25.621
N35390X18.672Y25.607
N35400X18.777Y25.551
N35410X18.864Y25.525
N35420X18.956Y25.516
N35430X19.049Y25.525
N35440X19.138Y25.551
N35450X19.244Y25.607
N35460X19.264Y25.621
N35470X19.302Y25.656
N35480X19.337Y25.695
N35490X19.351Y25.714
N35500X19.406Y25.820
N35510X19.433Y25.910
N35520X19.442Y26.006
N35530X19.433Y26.104
N35540X19.404Y26.203
N35550X19.343Y26.320
N35560X19.324Y26.348
N35570X19.252Y26.429
N35580G2X19.006Y27.085I0.754J0.657
N35590G01X19.003Y29.971
N35600G2X20.003Y30.972I1.000J0.001
N35610G01X25.019
N35620G2X26.019Y29.972I0.000J-1.000
N35630G01X26.015Y22.101
N35640G2X25.753Y21.427I-1.000J0.000
N35650G01X25.684Y21.351
N35660X25.670Y21.333
N35670X25.615Y21.228
N35680X25.589Y21.141
N35690X25.580Y21.049
N35700X25.588Y20.956
N35710X25.615Y20.867
N35720X25.670Y20.761
N35730X25.685Y20.741
N35740X25.720Y20.703
N35750X25.758Y20.668
N35760X25.778Y20.653
N35770X25.886Y20.597
N35780X25.978Y20.569
N35790X26.075Y20.559
N35800X26.173Y20.567
N35810X26.265Y20.593
N35820X26.371Y20.646
N35830X26.389Y20.659
N35840X26.464Y20.723
N35850G2X27.128Y20.967I0.654J-0.756
N35860G01X30.045Y20.939
N35870G2X31.035Y19.939I-0.010J-1.000
N35880G01Y16.955
N35890Y12.954
N35900Y9.969
N35910G2X30.034Y8.970I-1.000J0.000
N35920G01X27.117Y8.973
N35930G2X26.443Y9.236I0.001J1.000
N35940G01X26.368Y9.304
N35950X26.349Y9.318
N35960X26.245Y9.374
N35970X26.157Y9.400
N35980X26.065Y9.409
N35990X25.973Y9.400
N36000X25.884Y9.374
N36010X25.778Y9.318
N36020X25.758Y9.304
N36030X25.719Y9.269
N36040X25.685Y9.230
N36050X25.670Y9.211
N36060X25.615Y9.105
N36070X25.588Y9.016
N36080X25.580Y8.924
N36090X25.589Y8.832
N36100X25.615Y8.744
N36110X25.670Y8.639
N36120X25.684Y8.620
N36130X25.753Y8.545
N36140G2X26.015Y7.871I-0.738J-0.675
N36150G01X26.019Y0.000
N36160G2X25.019Y-1.000I-1.000J0.000
N36170G01X20.003
N36180G2X19.003Y0.001I0.000J1.000
N36190G01X19.006Y2.855
N36200G2X19.269Y3.529I1.000J-0.001
N36210G01X19.337Y3.604
N36220X19.351Y3.623
N36230X19.407Y3.727
N36240X19.433Y3.815
N36250X19.442Y3.907
N36260X19.433Y3.999
N36270X19.407Y4.088
N36280X19.351Y4.194
N36290X19.336Y4.214
N36300X19.302Y4.253
N36310X19.263Y4.287
N36320X19.244Y4.302
N36330X19.138Y4.357
N36340X19.049Y4.384
N36350X18.957Y4.392
N36360X18.865Y4.383
N36370X18.777Y4.357
N36380X18.672Y4.302
N36390X18.653Y4.288
N36400X18.578Y4.219
N36410G2X17.908Y3.957I-0.675J0.738
N36420G01X17.020Y3.953
N36430X13.015
N36440X12.128Y3.957
N36450G2X11.457Y4.219I0.004J1.000
N36460G01X11.382Y4.288
N36470X11.363Y4.302
N36480X11.259Y4.357
N36490X11.171Y4.383
N36500X11.079Y4.392
N36510X10.987Y4.384
N36520X10.898Y4.357
N36530X10.792Y4.302
N36540X10.772Y4.287
N36550X10.733Y4.252
N36560X10.699Y4.214
N36570X10.684Y4.194
N36580X10.629Y4.089
N36590X10.602Y4.000
N36600X10.594Y3.907
N36610X10.603Y3.815
N36620X10.629Y3.727
N36630X10.684Y3.623
N36640X10.698Y3.604
N36650X10.767Y3.528
N36660G2X11.029Y2.855I-0.738J-0.675
N36670G01X11.033Y0.001
N36680G2X10.033Y-1.000I-1.000J-0.001
N36690G01X5.016
N36700G2X4.016Y0.000I0.000J1.000
N36710G01X4.020Y7.871
N36720G2X4.283Y8.545I1.000J0.000
N36730G01X4.351Y8.621
N36740X4.365Y8.639
N36750X4.421Y8.744
N36760X4.447Y8.831
N36770X4.456Y8.923
N36780X4.447Y9.016
N36790X4.421Y9.105
N36800X4.365Y9.211
N36810X4.351Y9.231
N36820X4.316Y9.269
N36830X4.277Y9.304
N36840X4.258Y9.318
N36850X4.152Y9.373
N36860X4.062Y9.400
N36870X3.966Y9.409
N36880X3.867Y9.400
N36890X3.769Y9.371
N36900X3.651Y9.310
N36910X3.624Y9.291
N36920X3.542Y9.219
N36930G2X2.887Y8.973I-0.657J0.754
N36940G01X0.001Y8.970
N36950G2X-1.000Y9.969I-0.001J1.000
N36960G01Y12.954
N36970Y16.955
N36980Y19.939
N36990G2X-0.010Y20.939I1.000J0.000
N37000G01X2.876Y20.967
N37010G01Z-4.750F120.0
N37020G2X3.485Y20.768I0.010J-1.000F360.0
N37030G01X3.652Y20.643
N37040X3.749Y20.595
N37050X3.851Y20.567
N37060X3.955Y20.559
N37070X4.056Y20.569
N37080X4.150Y20.597
N37090X4.258Y20.654
N37100X4.278Y20.669
N37110X4.316Y20.703
N37120X4.351Y20.742
N37130X4.365Y20.761
N37140X4.421Y20.867
N37150X4.447Y20.956
N37160X4.456Y21.048
N37170X4.447Y21.140
N37180X4.421Y21.228
N37190X4.365Y21.333
N37200X4.351Y21.352
N37210X4.282Y21.427
N37220G2X4.020Y22.101I0.738J0.675
N37230G01X4.016Y29.972
N37240G2X5.016Y30.972I1.000J0.000
N37250G01X10.033
N37260G2X11.033Y29.971I0.000J-1.000
N37270G01X11.029Y27.085
N37280G2X10.814Y26.466I-1.000J0.001
N37290G01X10.681Y26.299
N37300X10.632Y26.203
N37310X10.603Y26.105
N37320X10.593Y26.006
N37330X10.603Y25.910
N37340X10.629Y25.820
N37350X10.685Y25.714
N37360X10.699Y25.694
N37370X10.734Y25.656
N37380X10.772Y25.621
N37390X10.792Y25.607
N37400X10.897Y25.551
N37410X10.986Y25.525
N37420X11.079Y25.516
N37430X11.171Y25.525
N37440X11.259Y25.551
N37450X11.363Y25.607
N37460X11.382Y25.621
N37470X11.457Y25.690
N37480G2X12.128Y25.952I0.675J-0.738
N37490G01X13.015Y25.955
N37500X17.020
N37510X17.907Y25.952
N37520G2X18.578Y25.689I-0.004J-1.000
N37530G01X18.654Y25.621
N37540X18.672Y25.607
N37550X18.777Y25.551
N37560X18.864Y25.525
N37570X18.956Y25.516
N37580X19.049Y25.525
N37590X19.138Y25.551
N37600X19.244Y25.607
N37610X19.264Y25.621
N37620X19.302Y25.656
N37630X19.337Y25.695
N37640X19.351Y25.714
N37650X19.406Y25.820
N37660X19.433Y25.910
N37670X19.442Y26.006
N37680X19.433Y26.104
N37690X19.404Y26.203
N37700X19.343Y26.320
N37710X19.324Y26.348
N37720X19.252Y26.429
N37730G2X19.006Y27.085I0.754J0.657
N37740G01X19.003Y29.971
N37750G2X20.003Y30.972I1.000J0.001
N37760G01X25.019
N37770G2X26.019Y29.972I0.000J-1.000
N37780G01X26.015Y22.101
N37790G2X25.753Y21.427I-1.000J0.000
N37800G01X25.684Y21.351
N37810X25.670Y21.333
N37820X25.615Y21.228
N37830X25.589Y21.141
N37840X25.580Y21.049
N37850X25.588Y20.956
N37860X25.615Y20.867
N37870X25.670Y20.761
N37880X25.685Y20.741
N37890X25.720Y20.703
N37900X25.758Y20.668
N37910X25.778Y20.653
N37920X25.886Y20.597
N37930X25.978Y20.569
N37940X26.075Y20.559
N37950X26.173Y20.567
N37960X26.265Y20.593
N37970X26.371Y20.646
N37980X26.389Y20.659
N37990X26.464Y20.723
N38000G2X27.128Y20.967I0.654J-0.756
N38010G01X30.045Y20.939
N38020G2X31.035Y19.939I-0.010J-1.000
N38030G01Y16.955
N38040Y12.954
N38050Y9.969
N38060G2X30.034Y8.970I-1.000J0.000
N38070G01X27.117Y8.973
N38080G2X26.443Y9.236I0.001J1.000
N38090G01X26.368Y9.304
N38100X26.349Y9.318
N38110X26.245Y9.374
N38120X26.157Y9.400
N38130X26.065Y9.409
N38140X25.973Y9.400
N38150X25.884Y9.374
N38160X25.778Y9.318
N38170X25.758Y9.304
N38180X25.719Y9.269
N38190X25.685Y9.230
N38200X25.670Y9.211
N38210X25.615Y9.105
N38220X25.588Y9.016
N38230X25.580Y8.924
N38240X25.589Y8.832
N38250X25.615Y8.744
N38260X25.670Y8.639
N38270X25.684Y8.620
N38280X25.753Y8.545
N38290G2X26.015Y7.871I-0.738J-0.675
N38300G01X26.019Y0.000
N38310G2X25.019Y-1.000I-1.000J0.000
N38320G01X20.003
N38330G2X19.003Y0.001I0.000J1.000
N38340G01X19.006Y2.855
N38350G2X19.269Y3.529I1.000J-0.001
N38360G01X19.337Y3.604
N38370X19.351Y3.623
N38380X19.407Y3.727
N38390X19.433Y3.815
N38400X19.442Y3.907
N38410X19.433Y3.999
N38420X19.407Y4.088
N38430X19.351Y4.194
N38440X19.336Y4.214
N38450X19.302Y4.253
N38460X19.263Y4.287
N38470X19.244Y4.302
N38480X19.138Y4.357
N38490X19.049Y4.384
N38500X18.957Y4.392
N38510X18.865Y4.383
N38520X18.777Y4.357
N38530X18.672Y4.302
N38540X18.653Y4.288
N38550X18.578Y4.219
N38560G2X17.908Y3.957I-0.675J0.738
N38570G01X17.020Y3.953
N38580X13.015
N38590X12.128Y3.957
N38600G2X11.457Y4.219I0.004J1.000
N38610G01X11.382Y4.288
N38620X11.363Y4.302
N38630X11.259Y4.357
N38640X11.171Y4.383
N38650X11.079Y4.392
N38660X10.987Y4.384
N38670X10.898Y4.357
N38680X10.792Y4.302
N38690X10.772Y4.287
N38700X10.733Y4.252
N38710X10.699Y4.214
N38720X10.684Y4.194
N38730X10.629Y4.089
N38740X10.602Y4.000
N38750X10.594Y3.907
N38760X10.603Y3.815
N38770X10.629Y3.727
N38780X10.684Y3.623
N38790X10.698Y3.604
N38800X10.767Y3.528
N38810G2X11.029Y2.855I-0.738J-0.675
N38820G01X11.033Y0.001
N38830G2X10.033Y-1.000I-1.000J-0.001
N38840G01X5.016
N38850G2X4.016Y0.000I0.000J1.000
N38860G01X4.020Y7.871
N38870G2X4.283Y8.545I1.000J0.000
N38880G01X4.351Y8.621
N38890X4.365Y8.639
N38900X4.421Y8.744
N38910X4.447Y8.831
N38920X4.456Y8.923
N38930X4.447Y9.016
N38940X4.421Y9.105
N38950X4.365Y9.211
N38960X4.351Y9.231
N38970X4.316Y9.269
N38980X4.277Y9.304
N38990X4.258Y9.318
N39000X4.152Y9.373
N39010X4.062Y9.400
N39020X3.966Y9.409
N39030X3.867Y9.400
N39040X3.769Y9.371
N39050X3.651Y9.310
N39060X3.624Y9.291
N39070X3.542Y9.219
N39080G2X2.887Y8.973I-0.657J0.754
N39090G01X0.001Y8.970
N39100G2X-1.000Y9.969I-0.001J1.000
N39110G01Y12.954
N39120Y16.955
N39130Y19.939
N39140G2X-0.010Y20.939I1.000J0.000
N39150G01X2.876Y20.967
N39160G01Z-5.225F120.0
N39170G2X3.485Y20.768I0.010J-1.000F360.0
N39180G01X3.652Y20.643
N39190X3.749Y20.595
N39200X3.851Y20.567
N39210X3.955Y20.559
N39220X4.056Y20.569
N39230X4.150Y20.597
N39240X4.258Y20.654
N39250X4.278Y20.669
N39260X4.316Y20.703
N39270X4.351Y20.742
N39280X4.365Y20.761
N39290X4.421Y20.867
N39300X4.447Y20.956
N39310X4.456Y21.048
N39320X4.447Y21.140
N39330X4.421Y21.228
N39340X4.365Y21.333
N39350X4.351Y21.352
N39360X4.282Y21.427
N39370G2X4.020Y22.101I0.738J0.675
N39380G01X4.016Y29.972
N39390G2X5.016Y30.972I1.000J0.000
N39400G01X10.033
N39410G2X11.033Y29.971I0.000J-1.000
N39420G01X11.029Y27.085
N39430G2X10.814Y26.466I-1.000J0.001
N39440G01X10.681Y26.299
N39450X10.632Y26.203
N39460X10.603Y26.105
N39470X10.593Y26.006
N39480X10.603Y25.910
N39490X10.629Y25.820
N39500X10.685Y25.714
N39510X10.699Y25.694
N39520X10.734Y25.656
N39530X10.772Y25.621
N39540X10.792Y25.607
N39550X10.897Y25.551
N39560X10.986Y25.525
N39570X11.079Y25.516
N39580X11.171Y25.525
N39590X11.259Y25.551
N39600X11.363Y25.607
N39610X11.382Y25.621
N39620X11.457Y25.690
N39630G2X12.128Y25.952I0.675J-0.738
N39640G01X13.015Y25.955
N39650X17.020
N39660X17.907Y25.952
N39670G2X18.578Y25.689I-0.004J-1.000
N39680G01X18.654Y25.621
N39690X18.672Y25.607
N39700X18.777Y25.551
N39710X18.864Y25.525
N39720X18.956Y25.516
N39730X19.049Y25.525
N39740X19.138Y25.551
N39750X19.244Y25.607
N39760X19.264Y25.621
N39770X19.302Y25.656
N39780X19.337Y25.695
N39790X19.351Y25.714
N39800X19.406Y25.820
N39810X19.433Y25.910
N39820X19.442Y26.006
N39830X19.433Y26.104
N39840X19.404Y26.203
N39850X19.343Y26.320
N39860X19.324Y26.348
N39870X19.252Y26.429
N39880G2X19.006Y27.085I0.754J0.657
N39890G01X19.003Y29.971
N39900G2X20.003Y30.972I1.000J0.001
N39910G01X25.019
N39920G2X26.019Y29.972I0.000J-1.000
N39930G01X26.015Y22.101
N39940G2X25.753Y21.427I-1.000J0.000
N39950G01X25.684Y21.351
N39960X25.670Y21.333
N39970X25.615Y21.228
N39980X25.589Y21.141
N39990X25.580Y21.049
N40000X25.588Y20.956
N40010X25.615Y20.867
N40020X25.670Y20.761
N40030X25.685Y20.741
N40040X25.720Y20.703
N40050X25.758Y20.668
N40060X25.778Y20.653
N40070X25.886Y20.597
N40080X25.978Y20.569
N40090X26.075Y20.559
N40100X26.173Y20.567
N40110X26.265Y20.593
N40120X26.371Y20.646
N40130X26.389Y20.659
N40140X26.464Y20.723
N40150G2X27.128Y20.967I0.654J-0.756
N40160G01X30.045Y20.939
N40170G2X31.035Y19.939I-0.010J-1.000
N40180G01Y16.955
N40190Y12.954
N40200Y9.969
N40210G2X30.034Y8.970I-1.000J0.000
N40220G01X27.117Y8.973
N40230G2X26.443Y9.236I0.001J1.000
N40240G01X26.368Y9.304
N40250X26.349Y9.318
N40260X26.245Y9.374
N40270X26.157Y9.400
N40280X26.065Y9.409
N40290X25.973Y9.400
N40300X25.884Y9.374
N40310X25.778Y9.318
N40320X25.758Y9.304
N40330X25.719Y9.269
N40340X25.685Y9.230
N40350X25.670Y9.211
N40360X25.615Y9.105
N40370X25.588Y9.016
N40380X25.580Y8.924
N40390X25.589Y8.832
N40400X25.615Y8.744
N40410X25.670Y8.639
N40420X25.684Y8.620
N40430X25.753Y8.545
N40440G2X26.015Y7.871I-0.738J-0.675
N40450G01X26.019Y0.000
N40460G2X25.019Y-1.000I-1.000J0.000
N40470G01X20.003
N40480G2X19.003Y0.001I0.000J1.000
N40490G01X19.006Y2.855
N40500G2X19.269Y3.529I1.000J-0.001
N40510G01X19.337Y3.604
N40520X19.351Y3.623
N40530X19.407Y3.727
N40540X19.433Y3.815
N40550X19.442Y3.907
N40560X19.433Y3.999
N40570X19.407Y4.088
N40580X19.351Y4.194
N40590X19.336Y4.214
N40600X19.302Y4.253
N40610X19.263Y4.287
N40620X19.244Y4.302
N40630X19.138Y4.357
N40640X19.049Y4.384
N40650X18.957Y4.392
N40660X18.865Y4.383
N40670X18.777Y4.357
N40680X18.672Y4.302
N40690X18.653Y4.288
N40700X18.578Y4.219
N40710G2X17.908Y3.957I-0.675J0.738
N40720G01X17.020Y3.953
N40730X13.015
N40740X12.128Y3.957
N40750G2X11.457Y4.219I0.004J1.000
N40760G01X11.382Y4.288
N40770X11.363Y4.302
N40780X11.259Y4.357
N40790X11.171Y4.383
N40800X11.079Y4.392
N40810X10.987Y4.384
N40820X10.898Y4.357
N40830X10.792Y4.302
N40840X10.772Y4.287
N40850X10.733Y4.252
N40860X10.699Y4.214
N40870X10.684Y4.194
N40880X10.629Y4.089
N40890X10.602Y4.000
N40900X10.594Y3.907
N40910X10.603Y3.815
N40920X10.629Y3.727
N40930X10.684Y3.623
N40940X10.698Y3.604
N40950X10.767Y3.528
N40960G2X11.029Y2.855I-0.738J-0.675
N40970G01X11.033Y0.001
N40980G2X10.033Y-1.000I-1.000J-0.001
N40990G01X5.016
N41000G2X4.016Y0.000I0.000J1.000
N41010G01X4.020Y7.871
N41020G2X4.283Y8.545I1.000J0.000
N41030G01X4.351Y8.621
N41040X4.365Y8.639
N41050X4.421Y8.744
N41060X4.447Y8.831
N41070X4.456Y8.923
N41080X4.447Y9.016
N41090X4.421Y9.105
N41100X4.365Y9.211
N41110X4.351Y9.231
N41120X4.316Y9.269
N41130X4.277Y9.304
N41140X4.258Y9.318
N41150X4.152Y9.373
N41160X4.062Y9.400
N41170X3.966Y9.409
N41180X3.867Y9.400
N41190X3.769Y9.371
N41200X3.651Y9.310
N41210X3.624Y9.291
N41220X3.542Y9.219
N41230G2X2.887Y8.973I-0.657J0.754
N41240G01X0.001Y8.970
N41250G2X-1.000Y9.969I-0.001J1.000
N41260G01Y12.954
N41270Y16.955
N41280Y19.939
N41290G2X-0.010Y20.939I1.000J0.000
N41300G01X2.876Y20.967
N41310G01Z-5.700F120.0
N41320G2X3.485Y20.768I0.010J-1.000F360.0
N41330G01X3.652Y20.643
N41340X3.749Y20.595
N41350X3.851Y20.567
N41360X3.955Y20.559
N41370X4.056Y20.569
N41380X4.150Y20.597
N41390X4.258Y20.654
N41400X4.278Y20.669
N41410X4.316Y20.703
N41420X4.351Y20.742
N41430X4.365Y20.761
N41440X4.421Y20.867
N41450X4.447Y20.956
N41460X4.456Y21.048
N41470X4.447Y21.140
N41480X4.421Y21.228
N41490X4.365Y21.333
N41500X4.351Y21.352
N41510X4.282Y21.427
N41520G2X4.020Y22.101I0.738J0.675
N41530G01X4.016Y29.972
N41540G2X5.016Y30.972I1.000J0.000
N41550G01X10.033
N41560G2X11.033Y29.971I0.000J-1.000
N41570G01X11.029Y27.085
N41580G2X10.814Y26.466I-1.000J0.001
N41590G01X10.681Y26.299
N41600X10.632Y26.203
N41610X10.603Y26.105
N41620X10.593Y26.006
N41630X10.603Y25.910
N41640X10.629Y25.820
N41650X10.685Y25.714
N41660X10.699Y25.694
N41670X10.734Y25.656
N41680X10.772Y25.621
N41690X10.792Y25.607
N41700X10.897Y25.551
N41710X10.986Y25.525
N41720X11.079Y25.516
N41730X11.171Y25.525
N41740X11.259Y25.551
N41750X11.363Y25.607
N41760X11.382Y25.621
N41770X11.457Y25.690
N41780G2X12.128Y25.952I0.675J-0.738
N41790G01X13.015Y25.955
N41800X17.020
N41810X17.907Y25.952
N41820G2X18.578Y25.689I-0.004J-1.000
N41830G01X18.654Y25.621
N41840X18.672Y25.607
N41850X18.777Y25.551
N41860X18.864Y25.525
N41870X18.956Y25.516
N41880X19.049Y25.525
N41890X19.138Y25.551
N41900X19.244Y25.607
N41910X19.264Y25.621
N41920X19.302Y25.656
N41930X19.337Y25.695
N41940X19.351Y25.714
N41950X19.406Y25.820
N41960X19.433Y25.910
N41970X19.442Y26.006
N41980X19.433Y26.104
N41990X19.404Y26.203
N42000X19.343Y26.320
N42010X19.324Y26.348
N42020X19.252Y26.429
N42030G2X19.006Y27.085I0.754J0.657
N42040G01X19.003Y29.971
N42050G2X20.003Y30.972I1.000J0.001
N42060G01X25.019
N42070G2X26.019Y29.972I0.000J-1.000
N42080G01X26.015Y22.101
N42090G2X25.753Y21.427I-1.000J0.000
N42100G01X25.684Y21.351
N42110X25.670Y21.333
N42120X25.615Y21.228
N42130X25.589Y21.141
N42140X25.580Y21.049
N42150X25.588Y20.956
N42160X25.615Y20.867
N42170X25.670Y20.761
N42180X25.685Y20.741
N42190X25.720Y20.703
N42200X25.758Y20.668
N42210X25.778Y20.653
N42220X25.886Y20.597
N42230X25.978Y20.569
N42240X26.075Y20.559
N42250X26.173Y20.567
N42260X26.265Y20.593
N42270X26.371Y20.646
N42280X26.389Y20.659
N42290X26.464Y20.723
N42300G2X27.128Y20.967I0.654J-0.756
N42310G01X30.045Y20.939
N42320G2X31.035Y19.939I-0.010J-1.000
N42330G01Y16.955
N42340Y12.954
N42350Y9.969
N42360G2X30.034Y8.970I-1.000J0.000
N42370G01X27.117Y8.973
N42380G2X26.443Y9.236I0.001J1.000
N42390G01X26.368Y9.304
N42400X26.349Y9.318
N42410X26.245Y9.374
N42420X26.157Y9.400
N42430X26.065Y9.409
N42440X25.973Y9.400
N42450X25.884Y9.374
N42460X25.778Y9.318
N42470X25.758Y9.304
N42480X25.719Y9.269
N42490X25.685Y9.230
N42500X25.670Y9.211
N42510X25.615Y9.105
N42520X25.588Y9.016
N42530X25.580Y8.924
N42540X25.589Y8.832
N42550X25.615Y8.744
N42560X25.670Y8.639
N42570X25.684Y8.620
N42580X25.753Y8.545
N42590G2X26.015Y7.871I-0.738J-0.675
N42600G01X26.019Y0.000
N42610G2X25.019Y-1.000I-1.000J0.000
N42620G01X20.003
N42630G2X19.003Y0.001I0.000J1.000
N42640G01X19.006Y2.855
N42650G2X19.269Y3.529I1.000J-0.001
N42660G01X19.337Y3.604
N42670X19.351Y3.623
N42680X19.407Y3.727
N42690X19.433Y3.815
N42700X19.442Y3.907
N42710X19.433Y3.999
N42720X19.407Y4.088
N42730X19.351Y4.194
N42740X19.336Y4.214
N42750X19.302Y4.253
N42760X19.263Y4.287
N42770X19.244Y4.302
N42780X19.138Y4.357
N42790X19.049Y4.384
N42800X18.957Y4.392
N42810X18.865Y4.383
N42820X18.777Y4.357
N42830X18.672Y4.302
N42840X18.653Y4.288
N42850X18.578Y4.219
N42860G2X17.908Y3.957I-0.675J0.738
N42870G01X17.020Y3.953
N42880X13.015
N42890X12.128Y3.957
N42900G2X11.457Y4.219I0.004J1.000
N42910G01X11.382Y4.288
N42920X11.363Y4.302
N42930X11.259Y4.357
N42940X11.171Y4.383
N42950X11.079Y4.392
N42960X10.987Y4.384
N42970X10.898Y4.357
N42980X10.792Y4.302
N42990X10.772Y4.287
N43000X10.733Y4.252
N43010X10.699Y4.214
N43020X10.684Y4.194
N43030X10.629Y4.089
N43040X10.602Y4.000
N43050X10.594Y3.907
N43060X10.603Y3.815
N43070X10.629Y3.727
N43080X10.684Y3.623
N43090X10.698Y3.604
N43100X10.767Y3.528
N43110G2X11.029Y2.855I-0.738J-0.675
N43120G01X11.033Y0.001
N43130G2X10.033Y-1.000I-1.000J-0.001
N43140G01X5.016
N43150G2X4.016Y0.000I0.000J1.000
N43160G01X4.020Y7.871
N43170G2X4.283Y8.545I1.000J0.000
N43180G01X4.351Y8.621
N43190X4.365Y8.639
N43200X4.421Y8.744
N43210X4.447Y8.831
N43220X4.456Y8.923
N43230X4.447Y9.016
N43240X4.421Y9.105
N43250X4.365Y9.211
N43260X4.351Y9.231
N43270X4.316Y9.269
N43280X4.277Y9.304
N43290X4.258Y9.318
N43300X4.152Y9.373
N43310X4.062Y9.400
N43320X3.966Y9.409
N43330X3.867Y9.400
N43340X3.769Y9.371
N43350X3.651Y9.310
N43360X3.624Y9.291
N43370X3.542Y9.219
N43380G2X2.887Y8.973I-0.657J0.754
N43390G01X0.001Y8.970
N43400G2X-1.000Y9.969I-0.001J1.000
N43410G01Y12.954
N43420Y16.955
N43430Y19.939
N43440G2X-0.010Y20.939I1.000J0.000
N43450G01X2.876Y20.967
N43460G00Z6.000
N43470G00Z20.000
N43480G00X0.000Y0.000
N43490M09
N43500M30
%
