( ポケット 2 )
( USBCNC Postprocessor )
N20G00G21G17G90G40G49
N30G80
N40G00G43Z20.000H1
N50S12000M03
N60G94
N70X0.000Y0.000F720.0
N80G00X1.384Y1.501Z6.000
N90G01Z-0.700F300.0
N100G01X28.616F720.0
N110Y3.421
N120X1.384
N130Y5.341
N140X28.616
N150Y7.261
N160X1.384
N170Y9.181
N180X28.616
N190Y11.101
N200X1.384
N210Y13.021
N220X28.616
N230Y14.941
N240X1.384
N250Y16.861
N260X28.616
N270Y18.781
N280X1.384
N290Y20.701
N300X28.616
N310Y22.621
N320X1.384
N330Y24.541
N340X28.616
N350Y26.461
N360X1.384
N370Y28.381
N380X28.616
N390G00Z6.000
N400G00X1.000Y29.000
N410G01Z-0.700F300.0
N420G01Y1.000F720.0
N430X29.000
N440Y29.000
N450X1.000
N460G00Z6.000
N470G00Z20.000
N480G00X0.000Y0.000
N490M09
N500M30
%
